!!!!SEGMENT: pl-cz--iii-745--001-003_zebrowski-marcin-jozef--missa-pastoralis-et-in-terra.krn
!!!cenid: 17xx:2351
!!!COM: Żebrowski, Marcin Józef
!!!COM-rismID: pe30020322
!!!CDT: 1702-1770/06/29
!!!CNT: Polish
!!!OPR: Missa Pastoralis
!!!OTL: Et in terra
!!!OMV: 003
!!!PDT:
!!!AGN: Sacred; Mass
!!!YEC: Copyright 2022 Narodowy Instytut Fryderyka Chopina (https://polishscores.org)
!!!YEM: License CC-BY-4.0 (https://creativecommons.org/licenses/by/4.0)
!!!SMS-siglum: PL-CZ
!!!SMS-shelfmark: III-745
!!!SMS-shelfwork: 001-003 M
!!!SMS-variant:
!!!SMS-altvar:
!!!NIFC-rismSourceID: 300033497
!!!NIFC-rismChildID: 300033497
!!!NIFC-islandoraID: pl-cz:25279
!!!URL-pdf-islandora: https://repozytorium.nifc.pl/islandora/object/pl-cz%3A25279/datastream/PDF/view
!!!URL-scan: https://polish.musicsources.pl/pl/lokalizacje/galeria/rekopisy/1475 @EN{Scan on Polish Music Sources Website} @PL{Skany w portalu Dziedzictwo Muzyki Polskiej w otwartym dostępie}
!!!IIIF:
!!!ONB-nifc: UWAGA: części Mszy: 1. Kyrie, 2. Christe, 3. Et in terra, 4. Quoniam, 5. Patrem, 6. Et incarnatus, 7. Et resurrexit, 8. Sanctus, 9. Benedictus, 10. Osanna, 11. Agnus Dei
!!!AIN: 1 bass 2 clrno 1 organ 1 soprn 2 violn
!!!key: D
**kern	**fba	**dynam	**kern	**dynam	**kern	**dynam	**kern	**text	**kern	**text	**kern	**kern
*	*	*	*group3	*	*group3	*	*group2	*	*group2	*	*group1	*group1
*part7	*	*	*part6	*	*part5	*	*part4	*	*part3	*	*part2	*part1
*staff7	*	*	*staff6	*	*staff5	*	*staff4	*	*staff3	*	*staff2	*staff1
*I"Organo	*	*	*I"Violino Secundo	*	*I"Violino Primo.	*	*I"Baſso.	*	*I"Soprano o Canto.	*	*I"Clarino Secundo in D:	*I"Clarino Primo in D:
*I'org	*	*	*I'vl 2	*	*I'vl 1	*	*I'B	*	*I'S	*	*I'clno 2 in D	*I'clno 1 in D
*Iorgan	*	*	*Ivioln	*	*Ivioln	*	*Ibass	*	*Isoprn	*	*Iclrno	*Iclrno
*ICklav	*	*	*ICstr	*	*ICstr	*	*ICvox	*	*ICvox	*	*ICbras	*ICbras
*IGcont	*	*	*	*	*	*	*	*	*	*	*	*
*clefF4	*	*	*clefG2	*	*clefG2	*	*clefF4	*	*clefC1	*	*clefG2	*clefG2
*	*	*	*	*	*	*	*	*	*	*	*ITrd-1c-2	*ITrd-1c-2
*k[f#c#]	*	*	*k[f#c#]	*	*k[f#c#]	*	*k[f#c#]	*	*k[f#c#]	*	*k[f#c#]	*k[f#c#]
*D:	*	*	*D:	*	*D:	*	*D:	*	*D:	*	*	*
*M3/4	*	*	*M3/4	*	*M3/4	*	*M3/4	*	*M3/4	*	*M3/4	*M3/4
=1	=1	=1	=1	=1	=1	=1	=1	=1	=1	=1	=1	=1
*2\right	*	*	*	*	*	*	*2\right	*	*2\right	*	*	*
!LO:TX:b:i:t=Tuti	!	!	!	!	!	!	!LO:TX:a:i:t=Tutti	!	!LO:TX:b:i:t=Gloria	!	!	!
!LO:TX:a:i:t=allo	!	!	!	!	!	!	!LO:TX:a:i:t=allo	!	!LO:TX:a:i:t=allo&colon;	!	!LO:TX:a:i:t=Allo	!LO:TX:a:i:t=allo
2.d\	.	.	16r	.	16r	.	2.d\	Et	2.dd\	Et	4dd\	4dd\
!	!	!	!LO:TX:a:i:t=allegro	!	!LO:TX:a:i:t=allo	!	!	!	!	!	!	!
.	.	.	16dd\LL	.	16dd\LL	.	.	.	.	.	.	.
.	.	.	16ee\	.	16ee\	.	.	.	.	.	.	.
.	.	.	16ff#\JJ	.	16ff#\JJ	.	.	.	.	.	.	.
.	.	.	16gg\LL	.	16gg\LL	.	.	.	.	.	4r	4r
.	.	.	16aa\	.	16aa\	.	.	.	.	.	.	.
.	.	.	16bb\	.	16bb\	.	.	.	.	.	.	.
.	.	.	16ccc#\JJ	.	16ccc#\JJ	.	.	.	.	.	.	.
.	.	.	8ddd\L	.	8ddd\L	.	.	.	.	.	4r	4r
.	.	.	8dd\J	.	8dd|\J	.	.	.	.	.	.	.
=2	=2	=2	=2	=2	=2	=2	=2	=2	=2	=2	=2	=2
2.A\	8	.	16r	.	16r	.	2.A\	in	2.a\	in	4a/	4a/
.	.	.	16a\LL	.	16a\LL	.	.	.	.	.	.	.
.	.	.	16b\	.	16b\	.	.	.	.	.	.	.
.	.	.	16cc#\JJ	.	16cc#\JJ	.	.	.	.	.	.	.
.	.	.	16dd\LL	.	16dd\LL	.	.	.	.	.	4r	4r
.	.	.	16ee\	.	16ee\	.	.	.	.	.	.	.
.	.	.	16ff#\	.	16ff#\	.	.	.	.	.	.	.
.	.	.	16gg#X\JJ	.	16gg#X\JJ	.	.	.	.	.	.	.
!	!	!	!LO:TX:t=P:problem=mixed beam	!	!LO:TX:t=P:problem=mixed beam	!	!	!	!	!	!	!
.	.	.	8aa|\L	.	8aa|\L	.	.	.	.	.	4r	4r
.	.	.	8a|/J	.	8a|/J	.	.	.	.	.	.	.
=3	=3	=3	=3	=3	=3	=3	=3	=3	=3	=3	=3	=3
2.F#\	8	.	16r	.	16r	.	2.F#\	ter-	2.f#t/	ter-	4f#/	4f#/
.	.	.	16f#/LL	.	16f#/LL	.	.	.	.	.	.	.
.	.	.	16g/	.	16g/	.	.	.	.	.	.	.
.	.	.	16a/JJ	.	16a/JJ	.	.	.	.	.	.	.
.	.	.	16b\LL	.	16b/LL	.	.	.	.	.	4r	4r
.	.	.	16cc#\	.	16cc#/	.	.	.	.	.	.	.
.	.	.	16dd\	.	16dd/	.	.	.	.	.	.	.
.	.	.	16ee\JJ	.	16ee/JJ	.	.	.	.	.	.	.
!	!	!	!LO:TX:t=P:problem=mixed beam	!	!LO:TX:t=P:problem=mixed beam	!	!	!	!	!	!	!
.	.	.	8ff#|\L	.	8ff#|\L	.	.	.	.	.	4r	4r
.	.	.	8f#|/J	.	8f#|/J	.	.	.	.	.	.	.
=4	=4	=4	=4	=4	=4	=4	=4	=4	=4	=4	=4	=4
2D/	8	.	16r	.	16r	.	2D\	-ra	2d/	-ra	4d/	4d/
.	.	.	16d/LL	.	16d/LL	.	.	.	.	.	.	.
.	.	.	16e/	.	16e/	.	.	.	.	.	.	.
.	.	.	16f#/JJ	.	16f#/JJ	.	.	.	.	.	.	.
.	.	.	16g/LL	.	16g/LL	.	.	.	.	.	4r	4r
.	.	.	16a/	.	16a/	.	.	.	.	.	.	.
.	.	.	16b/	.	16b/	.	.	.	.	.	.	.
.	.	.	16cc#/JJ	.	16cc#/JJ	.	.	.	.	.	.	.
!	!	!	!LO:TX:t=P:problem=mixed beam	!	!LO:TX:t=P:problem=mixed beam	!	!	!	!	!	!	!
4r	.	.	8dd|\L	.	8dd|\L	.	4r	.	4r	.	4r	4r
.	.	.	8d/J	.	8d|/J	.	.	.	.	.	.	.
!	!	!	!LO:LB:g=original	!	!	!	!	!	!	!	!	!
=5	=5	=5	=5	=5	=5	=5	=5	=5	=5	=5	=5	=5
*	*	*	*^	*	*	*	*	*	*	*	*	*
*	*	*	*	*	*	*	*	*	*	*	*	*2\right	*2\right
!	!	!	!LO:N:vis=8	!	!	!	!	!	!	!	!	!	!
8D/L	.	.	16a/LL	16f#\LL	.	8dd\	.	2D/	pax	2ff#\	pax	2.ff#\	2.aa\
!	!	!	!LO:N:vis=8	!	!	!	!	!	!	!	!	!	!
.	.	.	16r	16d\	.	.	.	.	.	.	.	.	.
!	!	!	!LO:N:vis=8	!	!	!	!	!	!	!	!	!	!
8D/	.	.	16a/	16f#\	.	4ddd\	.	.	.	.	.	.	.
!	!	!	!LO:N:vis=8	!	!	!	!	!	!	!	!	!	!
.	.	.	16r	16d\JJ	.	.	.	.	.	.	.	.	.
!	!	!	!LO:N:vis=8	!	!	!	!	!	!	!	!	!	!
8D/	.	.	16a/	16f#\LL	.	.	.	.	.	.	.	.	.
!	!	!	!LO:N:vis=8	!	!	!	!	!	!	!	!	!	!
.	.	.	16r	16d\	.	.	.	.	.	.	.	.	.
!	!	!	!LO:N:vis=8	!	!	!	!	!	!	!	!	!	!
8D/J	.	.	16a/	16f#\	.	4aa\	.	.	.	.	.	.	.
!	!	!	!LO:N:vis=8	!	!	!	!	!	!	!	!	!	!
.	.	.	16r	16d\JJ	.	.	.	.	.	.	.	.	.
!LO:TX:t=P:problem=brzeg karty zaklejony, nuty niewidoczne	!	!	!LO:N:vis=8	!	!	!	!	!	!	!	!	!	!
8D\yy	.	.	16a/	16f#\LL	.	.	.	4D/	ho-	4ff#\	ho-	.	.
!	!	!	!LO:N:vis=8	!	!	!	!	!	!	!	!	!	!
.	.	.	16r	16d\	.	.	.	.	.	.	.	.	.
!	!	!	!LO:N:vis=8	!	!	!	!	!	!	!	!	!	!
8D\yy	.	.	16a/JJ	16f#\	.	[8ff#\	.	.	.	.	.	.	.
!	!	!	!LO:N:vis=8	!	!	!	!	!	!	!	!	!	!
.	.	.	16r	16d\JJ	.	.	.	.	.	.	.	.	.
!LO:LB:g=original	!	!	!	!	!	!	!	!	!	!	!	!	!
=6	=6	=6	=6	=6	=6	=6	=6	=6	=6	=6	=6	=6	=6
*tremolo	*	*	*	*	*	*	*	*	*	*	*	*	*
!	!	!	!LO:N:vis=8	!	!	!	!	!	!	!	!	!	!
8D/L	.	.	16a/LL	16f#\LL	.	8ff#\]	.	4.D/	-mi-	4.ff#\	-mi-	8r	8r
!	!	!	!LO:N:vis=8	!	!	!	!	!	!	!	!	!	!
.	.	.	16r	16d\	.	.	.	.	.	.	.	.	.
!	!	!	!LO:N:vis=8	!	!	!	!	!	!	!	!	!	!
8D/	.	.	16a/	16f#\	.	4dd\	.	.	.	.	.	16d/LL	16d/LL
!	!	!	!LO:N:vis=8	!	!	!	!	!	!	!	!	!	!
.	.	.	16r	16d\JJ	.	.	.	.	.	.	.	16d/JJ	16d/JJ
!	!	!	!LO:N:vis=8	!	!	!	!	!	!	!	!	!	!
8D/	.	.	16a/	16f#\LL	.	.	.	.	.	.	.	8d/L	8d/L
!	!	!	!LO:N:vis=8	!	!	!	!	!	!	!	!	!	!
.	.	.	16r	16d\	.	.	.	.	.	.	.	.	.
!	!	!	!LO:N:vis=8	!	!	!	!	!	!	!	!	!	!
8D/	.	.	16a/	16f#\	.	4a/	.	8D/	-ni-	8ff#\	-ni-	8d/J	8d/J
!	!	!	!LO:N:vis=8	!	!	!	!	!	!	!	!	!	!
.	.	.	16r	16d\JJ	.	.	.	.	.	.	.	.	.
!	!	!	!LO:N:vis=8	!	!	!	!	!	!	!	!	!	!
8D/	.	.	16a/	16f#\LL	.	.	.	4D/	-bus	4ff#\	-bus	4d/	4d/
!	!	!	!LO:N:vis=8	!	!	!	!	!	!	!	!	!	!
.	.	.	16r	16d\	.	.	.	.	.	.	.	.	.
!	!	!	!LO:N:vis=8	!	!	!	!	!	!	!	!	!	!
8D/J	.	.	16a/JJ	16f#\	.	8f#/	.	.	.	.	.	.	.
!	!	!	!LO:N:vis=8	!	!	!	!	!	!	!	!	!	!
.	.	.	16r	16d\JJ	.	.	.	.	.	.	.	.	.
!	!	!	!	!	!	!	!	!	!	!	!	!	!LO:LB:g=original
=7	=7	=7	=7	=7	=7	=7	=7	=7	=7	=7	=7	=7	=7
!	!	!	!LO:N:vis=8	!	!	!	!	!	!	!	!	!	!
8D/L	6 4	.	16b/LL	16g\LL	.	8d/	.	4.D/	bo-	4.dd\	bo-	2.gg\	2.bb\
!	!	!	!LO:N:vis=8	!	!	!	!	!	!	!	!	!	!
.	.	.	16r	16d\	.	.	.	.	.	.	.	.	.
!	!	!	!LO:N:vis=8	!	!	!	!	!	!	!	!	!	!
8D/	.	.	16b/	16g\	.	4ddd\	.	.	.	.	.	.	.
!	!	!	!LO:N:vis=8	!	!	!	!	!	!	!	!	!	!
.	.	.	16r	16d\JJ	.	.	.	.	.	.	.	.	.
!	!	!	!LO:N:vis=8	!	!	!	!	!	!	!	!	!	!
8D/	.	.	16b/	16g\LL	.	.	.	.	.	.	.	.	.
!	!	!	!LO:N:vis=8	!	!	!	!	!	!	!	!	!	!
.	.	.	16r	16d\	.	.	.	.	.	.	.	.	.
!	!	!	!LO:N:vis=8	!	!	!	!	!	!	!	!	!	!
8D/	.	.	16b/	16g\	.	4bb\	.	8D/	-nae	8dd\	-nae	.	.
!	!	!	!LO:N:vis=8	!	!	!	!	!	!	!	!	!	!
.	.	.	16r	16d\JJ	.	.	.	.	.	.	.	.	.
!	!	!	!LO:N:vis=8	!	!	!	!	!	!	!	!	!	!
8D/	.	.	16b/	16g\LL	.	.	.	8D/	vo-	8dd\	vo-	.	.
!	!	!	!LO:N:vis=8	!	!	!	!	!	!	!	!	!	!
.	.	.	16r	16d\	.	.	.	.	.	.	.	.	.
!	!	!	!LO:N:vis=8	!	!	!	!	!	!	!	!	!	!
8D/J	.	.	16b/JJ	16g\	.	[8gg\	.	8D/	-lun-	8dd\	-lun-	.	.
!	!	!	!LO:N:vis=8	!	!	!	!	!	!	!	!	!	!
.	.	.	16r	16d\JJ	.	.	.	.	.	.	.	.	.
!	!	!	!	!	!	!LO:LB:g=original	!	!	!	!LO:LB:g=original	!	!LO:LB:g=original	!
=8	=8	=8	=8	=8	=8	=8	=8	=8	=8	=8	=8	=8	=8
!	!	!	!LO:N:vis=8	!	!	!	!	!	!	!	!	!	!
8D/L	6 4	.	16b/LL	16g\LL	.	8gg\]	.	2D/	-ta-	2dd\	-ta-	8r	8r
!	!	!	!LO:N:vis=8	!	!	!	!	!	!	!	!	!	!
.	.	.	16r	16d\	.	.	.	.	.	.	.	.	.
!	!	!	!LO:N:vis=8	!	!	!	!	!	!	!	!	!	!
8D/	.	.	16b/	16g\	.	4dd\	.	.	.	.	.	16d/LL	16d/LL
!	!	!	!LO:N:vis=8	!	!	!	!	!	!	!	!	!	!LO:TX:t=P:problem=wykreślone cztery szesnastki
.	.	.	16r	16d\JJ	.	.	.	.	.	.	.	16d/JJ	16d/JJ
!	!	!	!LO:N:vis=8	!	!	!	!	!	!	!	!	!	!
8D/	.	.	16b/	16g\LL	.	.	.	.	.	.	.	8d/L	8d/L
!	!	!	!LO:N:vis=8	!	!	!	!	!	!	!	!	!	!
.	.	.	16r	16d\	.	.	.	.	.	.	.	.	.
!	!	!	!LO:N:vis=8	!	!	!	!	!	!	!	!	!	!
8D/	.	.	16b/	16g\	.	4b\	.	.	.	.	.	8d/J	8d/J
!	!	!	!LO:N:vis=8	!	!	!	!	!	!	!	!	!	!
.	.	.	16r	16d\JJ	.	.	.	.	.	.	.	.	.
!	!	!	!LO:N:vis=8	!	!	!	!	!	!	!	!	!	!
8D/	.	.	16b/	16g\LL	.	.	.	4D/	-tis	4dd\	-tis	4d/	4d/
!	!	!	!LO:N:vis=8	!	!	!	!	!	!	!	!	!	!
.	.	.	16r	16d\	.	.	.	.	.	.	.	.	.
!	!	!	!LO:N:vis=8	!	!	!	!	!	!	!	!	!	!
8D/J	.	.	16b/JJ	16g\	.	8g/	.	.	.	.	.	.	.
!	!	!	!LO:N:vis=8	!	!	!	!	!	!	!	!	!	!
.	.	.	16r	16d\JJ	.	.	.	.	.	.	.	.	.
!	!	!	!	!	!	!	!	!LO:LB:g=original	!	!	!	!	!
=9	=9	=9	=9	=9	=9	=9	=9	=9	=9	=9	=9	=9	=9
!	!	!	!LO:N:vis=8	!	!	!	!	!	!	!	!	!	!
8D/L	5 3	.	16a/LL	16f#\LL	.	8d/	.	8d\	be-	4ff#\	Lau-	2.ff#\	2.aa\
!	!	!	!LO:N:vis=8	!	!	!	!	!	!	!	!	!	!
.	.	.	16r	16d\	.	.	.	.	.	.	.	.	.
!	!	!	!LO:N:vis=8	!	!	!	!	!	!	!	!	!	!
8D/	.	.	16a/	16f#\	.	4ddd\	.	8d\	-ne-	.	.	.	.
!	!	!	!LO:N:vis=8	!	!	!	!	!	!	!	!	!	!
.	.	.	16r	16d\JJ	.	.	.	.	.	.	.	.	.
!	!	!	!LO:N:vis=8	!	!	!	!	!	!	!	!	!	!
8D/	.	.	16a/	16f#\LL	.	.	.	4d\	-di-	4ff#\	-da-	.	.
!	!	!	!LO:N:vis=8	!	!	!	!	!	!	!	!	!	!
.	.	.	16r	16d\	.	.	.	.	.	.	.	.	.
!	!	!	!LO:N:vis=8	!	!	!	!	!	!	!	!	!	!
8D/	.	.	16a/	16f#\	.	4aa\	.	.	.	.	.	.	.
!	!	!	!LO:N:vis=8	!	!	!	!	!	!	!	!	!	!
.	.	.	16r	16d\JJ	.	.	.	.	.	.	.	.	.
!	!	!	!LO:N:vis=8	!	!	!	!	!	!	!	!	!	!
8D/	.	.	16a/	16f#\LL	.	.	.	8d\	-ci-	4ff#\	-mus	.	.
!	!	!	!LO:N:vis=8	!	!	!	!	!	!	!	!	!	!
.	.	.	16r	16d\	.	.	.	.	.	.	.	.	.
!	!	!	!LO:N:vis=8	!	!	!	!	!	!	!	!	!	!
8D/J	.	.	16a/JJ	16f#\	.	[8ff#\	.	8d\	-mus	.	.	.	.
!	!	!	!LO:N:vis=8	!	!	!	!	!	!	!	!	!	!
.	.	.	16r	16d\JJ	.	.	.	.	.	.	.	.	.
=10	=10	=10	=10	=10	=10	=10	=10	=10	=10	=10	=10	=10	=10
!	!	!	!LO:N:vis=8	!	!	!	!	!	!	!	!	!	!
8D/L	.	.	16a/LL	16f#\LL	.	8ff#\]	.	2.d\	te.	2.ff#\	te	8r	8r
!	!	!	!LO:N:vis=8	!	!	!	!	!	!	!	!	!	!
.	.	.	16r	16d\	.	.	.	.	.	.	.	.	.
!	!	!	!LO:N:vis=8	!	!	!	!	!	!	!	!	!	!
8D/	.	.	16a/	16f#\	.	4dd\	.	.	.	.	.	16d/LL	16d/LL
!	!	!	!LO:N:vis=8	!	!	!	!	!	!	!	!	!	!
.	.	.	16r	16d\JJ	.	.	.	.	.	.	.	16d/JJ	16d/JJ
!	!	!	!LO:N:vis=8	!	!	!	!	!	!	!	!	!	!
8D/	.	.	16a/	16f#\LL	.	.	.	.	.	.	.	8d/L	8d/L
!	!	!	!LO:N:vis=8	!	!	!	!	!	!	!	!	!	!
.	.	.	16r	16d\	.	.	.	.	.	.	.	.	.
!	!	!	!LO:N:vis=8	!	!	!	!	!	!	!	!	!	!
8D/	.	.	16a/JJ	16f#\	.	4a/	.	.	.	.	.	8d/J	8d/J
!	!	!	!LO:N:vis=8	!	!	!	!	!	!	!	!	!	!
.	.	.	16r	16d\JJ	.	.	.	.	.	.	.	.	.
!	!	!	!LO:LB:g=original	!LO:LB:g=original	!	!	!	!	!	!	!	!	!
!	!	!	!LO:N:vis=8	!	!	!	!	!	!	!	!	!	!
8D/	.	.	16a/LL	16f#\LL	.	.	.	.	.	.	.	4d/	4d/
!	!	!	!LO:N:vis=8	!	!	!	!	!	!	!	!	!	!
.	.	.	16r	16d\	.	.	.	.	.	.	.	.	.
!	!	!	!LO:N:vis=8	!	!	!	!	!	!	!	!	!	!
8D/J	.	.	16a/JJ	16f#\	.	8aa\	.	.	.	.	.	.	.
!	!	!	!LO:N:vis=8	!	!	!	!	!	!	!	!	!	!
.	.	.	16r	16d\JJ	.	.	.	.	.	.	.	.	.
=11	=11	=11	=11	=11	=11	=11	=11	=11	=11	=11	=11	=11	=11
!	!	!	!LO:N:vis=8	!	!	!	!	!	!	!	!	!	!
8AA/L	7	.	16a/LL	16g\LL	.	8.ggT\L	.	2A\	glo-	4.cc#\	a-	2.ee\	2.gg\
!	!	!	!LO:N:vis=8	!	!	!	!	!	!	!	!	!	!
.	.	.	16r	16e\	.	.	.	.	.	.	.	.	.
!	!	!	!LO:N:vis=8	!	!	!	!	!	!	!	!	!	!
8AA/	.	.	16a/	16g\	.	.	.	.	.	.	.	.	.
!	!	!	!LO:N:vis=8	!	!	!	!	!	!	!	!	!	!
.	.	.	16r	16e\JJ	.	(32ff#\LL	.	.	.	.	.	.	.
.	.	.	.	.	.	32gg\JJJ)	.	.	.	.	.	.	.
!	!	!	!LO:N:vis=8	!	!	!	!	!	!	!	!	!	!
8AA/	.	.	16a/	16g\LL	.	4A/	.	.	.	.	.	.	.
!	!	!	!LO:N:vis=8	!	!	!	!	!	!	!	!	!	!
.	.	.	16r	16e\	.	.	.	.	.	.	.	.	.
!	!	!	!LO:N:vis=8	!	!	!	!	!	!	!	!	!	!
8AA/	.	.	16a/	16g\	.	.	.	.	.	8cc#\	-do-	.	.
!	!	!	!LO:N:vis=8	!	!	!	!	!	!	!	!	!	!
.	.	.	16r	16e\JJ	.	.	.	.	.	.	.	.	.
!	!	!	!LO:N:vis=8	!	!	!	!	!	!	!	!	!	!
8AA/	.	.	16a/	16g\LL	.	8r	.	8A\	-ri-	8cc#\	-ra-	.	.
!	!	!	!LO:N:vis=8	!	!	!	!	!	!	!	!	!	!
.	.	.	16r	16e\	.	.	.	.	.	.	.	.	.
!	!	!	!LO:N:vis=8	!	!	!	!	!	!	!	!	!	!
8AA/J	.	.	16a/JJ	16g\	.	8gg\	.	8A\	-fi-	8cc#\	-mus	.	.
!	!	!	!LO:N:vis=8	!	!	!	!	!	!	!	!	!	!
.	.	.	16r	16e\JJ	.	.	.	.	.	.	.	.	.
=12	=12	=12	=12	=12	=12	=12	=12	=12	=12	=12	=12	=12	=12
.	.	.	.	.	.	8qqgg/	.	.	.	.	.	.	.
!	!	!	!LO:N:vis=8	!	!	!	!	!	!	!	!	!	!
8AA/L	6 4	.	16a/LL	16f#\LL	.	8.ff#t\L	.	4.A\	-ca-	2.dd\	te	2.dd\	2.ff#\
!	!	!	!LO:N:vis=8	!	!	!	!	!	!	!	!	!	!
.	.	.	16r	16d\	.	.	.	.	.	.	.	.	.
!	!	!	!LO:N:vis=8	!	!	!	!	!	!	!	!	!	!
8AA/	.	.	16a/	16f#\	.	.	.	.	.	.	.	.	.
!	!	!	!LO:N:vis=8	!	!	!	!	!	!	!	!	!	!
.	.	.	16r	16d\JJ	.	(32ee\LL	.	.	.	.	.	.	.
.	.	.	.	.	.	32ff#\JJJ)	.	.	.	.	.	.	.
!	!	!	!LO:N:vis=8	!	!	!	!	!	!	!	!	!	!
8AA/	.	.	16a/	16f#\LL	.	4d/	.	.	.	.	.	.	.
!	!	!	!LO:N:vis=8	!	!	!	!	!	!	!	!	!	!
.	.	.	16r	16d\	.	.	.	.	.	.	.	.	.
!	!	!	!LO:N:vis=8	!	!	!	!	!	!	!	!	!	!
8AA/	.	.	16a/	16f#\	.	.	.	8A\	-mus	.	.	.	.
!	!	!	!LO:N:vis=8	!	!	!	!	!	!	!	!	!	!
.	.	.	16r	16d\JJ	.	.	.	.	.	.	.	.	.
!	!	!	!LO:N:vis=8	!	!	!	!	!	!	!	!	!	!
8AA/	.	.	16a/	16f#\LL	.	8r	.	4A\	te,	.	.	.	.
!	!	!	!LO:N:vis=8	!	!	!	!	!	!	!	!	!	!
.	.	.	16r	16d\	.	.	.	.	.	.	.	.	.
!	!	!	!LO:N:vis=8	!	!	!	!	!	!	!	!	!	!
8AA/J	.	.	16a/JJ	16f#\	.	8aa\	.	.	.	.	.	.	.
!	!	!	!LO:N:vis=8	!	!	!	!	!	!	!	!	!	!
.	.	.	16r	16d\JJ	.	.	.	.	.	.	.	.	.
=13	=13	=13	=13	=13	=13	=13	=13	=13	=13	=13	=13	=13	=13
!	!	!	!LO:N:vis=8	!	!	!	!	!	!	!	!	!	!
8AA/L	7 3	.	16a/LL	16g\LL	.	8.ggT\L	.	4A\	gra-	4cc#\	Gra-	2.a/	2.ee\
!	!	!	!LO:N:vis=8	!	!	!	!	!	!	!	!	!	!
.	.	.	16r	16e\	.	.	.	.	.	.	.	.	.
!	!	!	!LO:N:vis=8	!	!	!	!	!	!	!	!	!	!
8AA/	.	.	16a/	16g\	.	.	.	.	.	.	.	.	.
!	!	!	!LO:N:vis=8	!	!	!	!	!	!	!	!	!	!
.	.	.	16r	16e\JJ	.	(32ff#\LL	.	.	.	.	.	.	.
.	.	.	.	.	.	32gg\JJJ)	.	.	.	.	.	.	.
!	!	!	!LO:N:vis=8	!	!	!	!	!	!	!	!	!	!
8AA/	.	.	16a/	16g\LL	.	4A/	.	8A\	-ti-	8cc#\	-ti-	.	.
!	!	!	!LO:N:vis=8	!	!	!	!	!	!	!	!	!	!
.	.	.	16r	16e\	.	.	.	.	.	.	.	.	.
!	!	!	!LO:N:vis=8	!	!	!	!	!	!	!	!	!	!
8AA/	.	.	16a/	16g\	.	.	.	8A\	-as	8cc#\	-as	.	.
!	!	!	!LO:N:vis=8	!	!	!	!	!	!	!	!	!	!
.	.	.	16r	16e\JJ	.	.	.	.	.	.	.	.	.
!	!	!	!LO:N:vis=8	!	!	!	!	!	!	!	!	!	!
8AA/	.	.	16a/	16g\LL	.	8r	.	8A\	a-	8cc#\	a-	.	.
!	!	!	!LO:N:vis=8	!	!	!	!	!	!	!	!	!	!
.	.	.	16r	16e\	.	.	.	.	.	.	.	.	.
!	!	!	!LO:N:vis=8	!	!	!	!	!	!	!	!	!	!
8AA/J	.	.	16a/JJ	16g\	.	8gg\	.	16A\	-gi-	16cc#\	-gi-	.	.
!	!	!	!LO:N:vis=8	!	!	!	!	!	!	!	!	!	!
.	.	.	16r	16e\JJ	.	.	.	16A\	-mus	16cc#\	-mus	.	.
!	!	!	!	!	!	!	!	!	!	!LO:LB:g=original	!	!	!
=14	=14	=14	=14	=14	=14	=14	=14	=14	=14	=14	=14	=14	=14
.	.	.	.	.	.	8qqgg/	.	.	.	.	.	.	.
!	!	!	!LO:N:vis=8	!	!	!	!	!	!	!	!	!	!
8AA/L	6 4	.	16a/LL	16f#\LL	.	8.ff#t\L	.	2A\	ti-	2dd\	ti-	2.dd\	2.ff#\
!	!	!	!LO:N:vis=8	!	!	!	!	!	!	!	!	!	!
.	.	.	16r	16d\	.	.	.	.	.	.	.	.	.
!	!	!	!LO:N:vis=8	!	!	!	!	!	!	!	!	!	!
8AA/	.	.	16a/	16f#\	.	.	.	.	.	.	.	.	.
!	!	!	!LO:N:vis=8	!	!	!	!	!	!	!	!	!	!
.	.	.	16r	16d\JJ	.	(32ee\LL	.	.	.	.	.	.	.
.	.	.	.	.	.	32ff#\JJJ)	.	.	.	.	.	.	.
!	!	!	!LO:N:vis=8	!	!	!	!	!	!	!	!	!	!
8AA/	.	.	16a/	16f#\LL	.	4d/	.	.	.	.	.	.	.
!	!	!	!LO:N:vis=8	!	!	!	!	!	!	!	!	!	!
.	.	.	16r	16d\	.	.	.	.	.	.	.	.	.
!	!	!	!LO:N:vis=8	!	!	!	!	!	!	!	!	!	!
8AA/	.	.	16a/	16f#\	.	.	.	.	.	.	.	.	.
!	!	!	!LO:N:vis=8	!	!	!	!	!	!	!	!	!	!
.	.	.	16r	16d\JJ	.	.	.	.	.	.	.	.	.
!	!	!	!LO:N:vis=8	!	!	!	!	!	!	!	!	!	!
8AA/	.	.	16a/	16f#\LL	.	8r	.	4A\	-bi	4dd\	-bi	.	.
!	!	!	!LO:N:vis=8	!	!	!	!	!	!	!	!	!	!
.	.	.	16r	16d\	.	.	.	.	.	.	.	.	.
!	!	!	!LO:N:vis=8	!	!	!	!	!	!	!	!	!	!
8AA/J	.	.	16a/JJ	16f#\	.	8aa|\	.	.	.	.	.	.	.
!	!	!	!LO:N:vis=8	!	!	!	!	!	!	!	!	!	!
.	.	.	16r	16d\JJ	.	.	.	.	.	.	.	.	.
=15	=15	=15	=15	=15	=15	=15	=15	=15	=15	=15	=15	=15	=15
.	.	.	.	.	.	8qqaa/	.	.	.	.	.	.	.
!	!	!	!LO:N:vis=8	!	!	!	!	!	!	!	!	!	!
8AA/L	7 3	.	16a/LL	16g\LL	.	8.ggT\L	.	8A\	prop-	8cc#\	prop-	2.ee\	2.gg\
!	!	!	!LO:N:vis=8	!	!	!	!	!	!	!	!	!	!
.	.	.	16r	16e\	.	.	.	.	.	.	.	.	.
!	!	!	!LO:N:vis=8	!	!	!	!	!	!	!	!	!	!
8AA/	.	.	16a/	16g\	.	.	.	8A\	-ter	8cc#\	-ter	.	.
!	!	!	!LO:N:vis=8	!	!	!	!	!	!	!	!	!	!
.	.	.	16r	16e\JJ	.	(32ff#\LL	.	.	.	.	.	.	.
.	.	.	.	.	.	32gg\JJJ)	.	.	.	.	.	.	.
!	!	!	!LO:N:vis=8	!	!	!	!	!	!	!	!	!	!
8AA/	.	.	16a/	16g\LL	.	4A/	.	8A\	ma-	8cc#\	ma-	.	.
!	!	!	!LO:N:vis=8	!	!	!	!	!	!	!	!	!	!
.	.	.	16r	16e\	.	.	.	.	.	.	.	.	.
!	!	!	!LO:N:vis=8	!	!	!	!	!	!	!	!	!	!
8AA/	.	.	16a/	16g\	.	.	.	8A\	-gna(m)	8cc#\	-gna(m)	.	.
!	!	!	!LO:N:vis=8	!	!	!	!	!	!	!	!	!	!
.	.	.	16r	16e\JJ	.	.	.	.	.	.	.	.	.
!	!	!	!LO:N:vis=8	!	!	!	!	!	!	!	!	!	!
8AA/	.	.	16a/	16g\LL	.	8r	.	8A\	[glo-]	8cc#\	glo-	.	.
!	!	!	!LO:N:vis=8	!	!	!	!	!	!	!	!	!	!
.	.	.	16r	16e\	.	.	.	.	.	.	.	.	.
!	!	!	!LO:N:vis=8	!	!	!	!	!LO:LB:g=original	!	!	!	!	!
8AA/J	.	.	16a/JJ	16g\	.	8gg|\	.	16A\	ri-	16cc#\	-ri-	.	.
!	!	!	!LO:N:vis=8	!	!	!	!	!	!	!	!	!	!
.	.	.	16r	16e\JJ	.	.	.	16A\	-am	16cc#\	-am	.	.
*Xtremolo	*	*	*	*	*	*	*	*	*	*	*	*	*
*	*	*	*v	*v	*	*	*	*	*	*	*	*	*
!	!	!	!LO:LB:g=original	!	!	!	!	!	!	!	!	!
=16	=16	=16	=16	=16	=16	=16	=16	=16	=16	=16	=16	=16
!	!	!	!	!	!	!	!	!	!	!	!LO:TX:t=P:problem=mixed beam	!LO:TX:t=P:problem=mixed beam
8D\L	.	.	8ff# 8a 8d/	.	8ff# 8a 8d/	.	4F#\	tu-	4dd\	tu-	8dd\L	8ff#\L
8D|\	.	.	8d|/L	.	8d|/L	.	.	.	.	.	8d|/	8d|/
8F#|\	.	.	8f#|/	.	8f#|/	.	4D\	-am	4dd\	-am	8f#|/	8f#|/
!	!	!LO:DY:b:t=pianiss	!	!	!	!	!	!	!	!	!	!
8A|\	.	pp	8a|/	.	8a|/	.	.	.	.	.	8a|/J	8a|/J
8d|\	.	.	8dd|/	.	8dd|/	.	4r	.	4r	.	4d/	4dd\
8c#|\J	.	.	8cc#|/J	.	8cc#|/J	.	.	.	.	.	.	.
=17	=17	=17	=17	=17	=17	=17	=17	=17	=17	=17	=17	=17
!	!	!	!	!	!	!	!LO:TX:a:t=5	!	!	!	!LO:TX:a:t=1	!LO:TX:a:t=1
8B|\L	.	.	8b|/L	.	8b|/L	.	0.r	.	0.r	.	2.r	2.r
8A|\	.	.	8a|/	.	8a|/	.	.	.	.	.	.	.
8G|\	.	.	8g|/	.	8g|/	.	.	.	.	.	.	.
8F#|\	.	.	8f#|/	.	8f#|/	.	.	.	.	.	.	.
8E|\	.	.	8e|/	.	8e|/	.	.	.	.	.	.	.
8D\J	.	.	8d|/J	.	8d|/J	.	.	.	.	.	.	.
!	!	!	!	!	!LO:LB:g=original	!	!	!	!	!	!	!LO:LB:g=original
=18	=18	=18	=18	=18	=18	=18	=18	=18	=18	=18	=18	=18
!	!	!	!	!	!	!	!	!	!	!	!	!LO:TX:t=P:problem=brzeg karty zaklejony, nuty niewidoczne
4A\	.	.	4a/	.	4a/	.	.	.	.	.	2a/	2ryy
4AA/	.	.	4A/	.	4A/	.	.	.	.	.	.	.
8r	.	.	8r	.	8r	.	.	.	.	.	4dd\	4ff#\
8G#X\	.	.	8g#X/	.	8g#X/	.	.	.	.	.	.	.
=19	=19	=19	=19	=19	=19	=19	=19	=19	=19	=19	=19	=19
4A\	.	.	4a/	.	4a|/	.	.	.	.	.	4.a/	4.ee\
4AA/	.	.	4A/	.	4A/	.	.	.	.	.	.	.
.	.	.	.	.	.	.	.	.	.	.	8ee\	8gg\
!	!	!	!	!	!	!	!	!	!	!	!LO:TX:t=P:problem=brzeg karty zaklejony, nuty niewidoczne	!
8r	.	.	8r	.	8r	.	.	.	.	.	4ryy	4ff#\
8G#X\	.	.	8g#X/	.	8g#X|/	.	.	.	.	.	.	.
!	!	!	!	!	!	!	!	!	!	!	!LO:LB:g=original	!
=20	=20	=20	=20	=20	=20	=20	=20	=20	=20	=20	=20	=20
!	!	!	!	!	!	!	!	!	!	!	!LO:TX:t=P:problem=brzeg karty zaklejony, nuty niewidoczne	!
4A\	.	.	4a/	.	4a/	.	.	.	.	.	4ryy	4ee\
4AA/	.	.	8aL 8e 8A/	.	8aL 8e 8A/	.	.	.	.	.	8a/L	8ee\L
.	.	.	8cc#/	.	8cc#/	.	.	.	.	.	8a/	8ee\
4AA/	.	.	8a 8e 8A/	.	8a 8e 8A/	.	.	.	.	.	8a/	8ee\
.	.	.	8cc#/J	.	8cc#/J	.	.	.	.	.	8a/J	8ee\J
=21	=21	=21	=21	=21	=21	=21	=21	=21	=21	=21	=21	=21
8r	.	.	4a 4e 4A/	.	4a 4e 4A/	.	2.r	.	2.r	.	4a/	4ee\
8AA|/L	.	.	.	.	.	.	.	.	.	.	.	.
8C#|/	.	.	4r	.	4r	.	.	.	.	.	4r	4r
8AA|/	.	.	.	.	.	.	.	.	.	.	.	.
8E|/	.	.	4r	.	4r	.	.	.	.	.	4r	4r
8C#|/J	.	.	.	.	.	.	.	.	.	.	.	.
=22	=22	=22	=22	=22	=22	=22	=22	=22	=22	=22	=22	=22
4A\	.	.	8cc#\L	.	(16a\LL	.	4A\	Do-	(4cc#\	Do-	4ee\	4aa\
.	.	.	.	.	16aa\)	.	.	.	.	.	.	.
.	.	.	8cc#\	.	16gg#X|\	.	.	.	.	.	.	.
.	.	.	.	.	16aa|\JJ	.	.	.	.	.	.	.
4c#\	.	.	8ee\	.	(16bb\LL	.	8c#\	.	8ee\)	.	4ee\	4aa\
.	.	.	.	.	16aa\)	.	.	.	.	.	.	.
.	.	.	8ee\	.	16gg#X|\	.	8c#\	-mi-	8ee\	-mi-	.	.
.	.	.	.	.	16aa|\JJ	.	.	.	.	.	.	.
4A\	.	.	8cc#\	.	(16a\LL	.	4A\	-ne	4cc#\	-ne	4ee\	4aa\
.	.	.	.	.	16aa\)	.	.	.	.	.	.	.
.	.	.	8cc#\J	.	16gg#X|\	.	.	.	.	.	.	.
.	.	.	.	.	16aa|\JJ	.	.	.	.	.	.	.
!LO:LB:g=original	!	!	!	!	!	!	!	!	!	!	!	!
=23	=23	=23	=23	=23	=23	=23	=23	=23	=23	=23	=23	=23
4e\	#3	.	4g#X/	.	16bb\LL	.	2G#X\	Fi-	2b\	De-	2.ee\	2.gg#X\
.	.	.	.	.	(16aa\	.	.	.	.	.	.	.
.	.	.	.	.	16gg#X\)	.	.	.	.	.	.	.
.	.	.	.	.	16ff#\JJ	.	.	.	.	.	.	.
4G#X\	6	.	4b/	.	8ee\L	.	.	.	.	.	.	.
.	.	.	.	.	8bb\	.	.	.	.	.	.	.
4E\	7 #	.	4g#/	.	8dd\	.	4G#\	-li	4b\	-us	.	.
.	.	.	.	.	8bb\J	.	.	.	.	.	.	.
=24	=24	=24	=24	=24	=24	=24	=24	=24	=24	=24	=24	=24
!	!	!	!LO:TX:t=P:problem=mixed beam	!	!	!	!	!	!	!	!	!
4AA/	.	.	8e/L	.	(16a\LL	.	(4A\	u-	(4cc#\	Rex	4ee\	4aa\
.	.	.	.	.	16aa\)	.	.	.	.	.	.	.
.	.	.	8cc#\	.	16gg#X|\	.	.	.	.	.	.	.
.	.	.	.	.	16aa|\JJ	.	.	.	.	.	.	.
4C#/	.	.	8ee\	.	(16bb\LL	.	4c#\)	.	8ee\)	.	4r	4r
.	.	.	.	.	16aa\)	.	.	.	.	.	.	.
!	!	!	!	!	!	!	!	!	!LO:TX:t=P:problem=brzeg karty zaklejony, nuty niewidoczne	!	!	!
.	.	.	8ee\	.	16gg#X|\	.	.	.	4.ryy	.	.	.
.	.	.	.	.	16aa|\JJ	.	.	.	.	.	.	.
4AA/	.	.	8cc#\	.	(16a\LL	.	4A\	-ni-	.	.	4r	4r
.	.	.	.	.	16aa\)	.	.	.	.	.	.	.
.	.	.	8cc#\J	.	16gg#X|\	.	.	.	.	.	.	.
.	.	.	.	.	16aa|\JJ	.	.	.	.	.	.	.
!	!	!	!	!	!	!	!	!	!LO:LB:g=original	!	!	!
=25	=25	=25	=25	=25	=25	=25	=25	=25	=25	=25	=25	=25
.	.	.	.	.	.	.	.	.	8qqcc#/	.	.	.
4E\	#3	.	4g#X/	.	16bb\LL	.	4.G#X\	-ge-	2b\	les-	2.ee\	2.gg#X\
.	.	.	.	.	(16aa\	.	.	.	.	.	.	.
.	.	.	.	.	16gg#X\)	.	.	.	.	.	.	.
.	.	.	.	.	16ff#\JJ	.	.	.	.	.	.	.
4G#X\	6	.	4b/	.	8ee\L	.	.	.	.	.	.	.
.	.	.	.	.	8bb\	.	8G#\	-ni-	.	.	.	.
4E\	7 #	.	4g#X/	.	8dd\	.	4G#\	-te	4b\	-tis	.	.
.	.	.	.	.	8bb\J	.	.	.	.	.	.	.
!	!	!	!LO:LB:g=original	!	!LO:LB:g=original	!	!	!	!	!	!	!
=26	=26	=26	=26	=26	=26	=26	=26	=26	=26	=26	=26	=26
8A\L	3	.	8a|/L	.	8cc#|\L	.	(8A\L	Je-	(8cc#\L	De-	8ee\	8aa\
8E\	7 #3	.	(16b/L	.	(16dd\L	.	8E\J)	.	8b\J)	.	8r	8r
.	.	.	16g#X/JJ)	.	16b\JJ)	.	.	.	.	.	.	.
8A\	3	.	8a|/L	.	8cc#|\L	.	(8A\L	.	(8cc#\L	.	4r	4r
8E\	7 #3	.	(16b/L	.	(16dd\L	.	8E\J)	.	8b\J)	.	.	.
.	.	.	16g#X/JJ)	.	16b\JJ)	.	.	.	.	.	.	.
8A\	3	.	8a|/L	.	8cc#|\L	.	(8A\L	.	(8cc#\	-us	4r	4r
8E\J	7 #3	.	(16b/L	.	(16dd\L	.	8E\J)	.	8b\)	.	.	.
.	.	.	16g#X/JJ)	.	16b\JJ)	.	.	.	.	.	.	.
=27	=27	=27	=27	=27	=27	=27	=27	=27	=27	=27	=27	=27
8AA/L	3	.	8cc#|\L	.	8aa|\L	.	(8A\L	.	(8cc#\L	Pa-	8ee\	8aa\L
8E/	7 #3	.	(16dd\L	.	(16bb\L	.	8E\J)	.	8b\J)	.	4ee\	8gg#X\
.	.	.	16b\JJ)	.	16gg#X\JJ)	.	.	.	.	.	.	.
8AA/	3	.	8cc#|\L	.	8aa|\L	.	8A\L	.	(8cc#\L	.	.	8aa\
!	!	!	!	!	!	!	!LO:TX:t=P:problem=brzeg karty zaklejony, nuty niewidoczne	!	!	!	!	!
8E/	7 #3	.	(16dd\L	.	(16bb\L	.	8E\Jyy	.	8b\J)	.	4ee\	8gg#\
.	.	.	16b\JJ)	.	16gg#X\JJ)	.	.	.	.	.	.	.
!	!	!	!	!	!	!	!LO:LB:g=original	!	!	!	!	!
8AA/	3	.	8cc#|\L	.	8aa|\L	.	8A\	.	(8cc#\L	-ter	.	8aa\
8E/J	7 #3	.	(16dd\L	.	(16bb\L	.	8E\	-su	8b\J)	.	8ee\	8gg#\J
.	.	.	16b\JJ)	.	16gg#X\JJ)	.	.	.	.	.	.	.
!	!	!	!	!	!	!	!	!	!	!	!	!LO:LB:g=original
=28	=28	=28	=28	=28	=28	=28	=28	=28	=28	=28	=28	=28
!	!	!	!	!	!LO:TX:t=P:problem=mixed beam	!	!	!	!	!	!	!LO:TX:t=P:problem=brzeg karty zaklejony, nuty niewidoczne
.	.	.	.	.	8qqgg/	.	.	.	.	.	.	.
4C#/	6	.	8e/	.	8.aa\L	.	8C#/	Je-	4a\	Om-	4ee\	4ryy
.	.	.	4a/	.	.	.	8C#/	-su	.	.	.	.
.	.	.	.	.	16a/Jk	.	.	.	.	.	.	.
.	.	.	.	.	8qqcc#/	.	.	.	.	.	.	.
4D/	6 5	.	.	.	2bT/	.	(4.D\	Chri-	4.bT\	-ni-	4ff#\	4aa\
.	.	.	8f#/	.	.	.	.	.	.	.	.	.
4E\	#	.	4g#Xt/	.	.	.	.	.	.	.	4ee\	4gg#X\
.	.	.	.	.	.	.	8E\)	.	8a\	-po-	.	.
=29	=29	=29	=29	=29	=29	=29	=29	=29	=29	=29	=29	=29
!	!	!	!	!	!LO:TX:t=P:problem=mixed beam	!	!	!	!	!	!	!
4AA/	.	.	8a/L	.	8a/L	.	4AA/	-ste	4a\	-tens	4ee\	4aa\
.	.	.	8cc#/	.	(8aa\	.	.	.	.	.	.	.
4r	.	.	8b/	.	(8gg#X\)	.	4r	.	4r	.	4r	4r
.	.	.	8a/	.	8ff#\)	.	.	.	.	.	.	.
4r	.	.	8g#X/	.	(8ee\	.	4r	.	4r	.	4r	4r
.	.	.	8e/J	.	8dd\J)	.	.	.	.	.	.	.
=30	=30	=30	=30	=30	=30	=30	=30	=30	=30	=30	=30	=30
!LO:TX:a:t=1	!	!	!	!	!	!	!	!	!	!	!	!LO:TX:a:t=1
2.r	.	.	8a/L	.	(8cc#\L	.	2.r	.	2.r	.	2.r	2.r
.	.	.	8g#X/	.	8b\	.	.	.	.	.	.	.
.	.	.	8f#/	.	8dd\)	.	.	.	.	.	.	.
.	.	.	8e/	.	(8cc#\	.	.	.	.	.	.	.
.	.	.	8d/	.	8ff#\	.	.	.	.	.	.	.
.	.	.	8c#/J	.	8ee\J)	.	.	.	.	.	.	.
!	!	!	!	!	!	!	!	!	!LO:LB:g=original	!	!	!
=31	=31	=31	=31	=31	=31	=31	=31	=31	=31	=31	=31	=31
*	*	*	*	*	*^	*	*	*	*	*	*	*
4D\	.	.	4a|/	.	4ff# 4a 4d/	4ryy	.	8D\	Je-	8ff#\	Je-	4ff#\	4aa\
.	.	.	.	.	.	.	.	8F#\	-su	8dd\	-su	.	.
*	*	*	*	*	*	*2\right	*	*	*	*	*	*	*
4E\	6 4	.	(4a/	.	4cc#/	2e\	.	2E\	Chri	(4cc#\	Chri-	2ee\	4aa\
4EE/	7 #	.	4g#Xt/)	.	4bT/	.	.	.	.	4bT\)	.	.	4gg#X\
*	*	*	*	*	*v	*v	*	*	*	*	*	*	*
!	!	!	!	!	!	!	!	!	!	!	!LO:LB:g=original	!
=32	=32	=32	=32	=32	=32	=32	=32	=32	=32	=32	=32	=32
.	.	.	.	.	.	.	.	.	8qqb/	.	.	.
4AA/	.	.	8a/L	.	8cc#|\L	.	4A\	ſte	4cc#\	-ste	4ee\	4aa\
!	!	!	!	!LO:DY:b:t=pia	!	!	!	!	!	!	!	!
.	.	.	8cc#/	p	(8aa\	.	.	.	.	.	.	.
!	!	!	!	!	!	!LO:DY:b:t=p&colon;	!	!	!	!	!	!
4r	.	.	8b/	.	8gg#X\	p	4r	.	4r	.	4r	4r
.	.	.	8a/	.	8ff#\	.	.	.	.	.	.	.
4r	.	.	8g#X/	.	8ee\	.	4r	.	4r	.	4r	4r
.	.	.	8e/J	.	8dd\J)	.	.	.	.	.	.	.
=33	=33	=33	=33	=33	=33	=33	=33	=33	=33	=33	=33	=33
!	!	!	!	!	!	!	!	!	!	!	!	!LO:TX:a:t=1
2.r	.	.	8a/L	.	(8cc#\L	.	2.r	.	2.r	.	2.r	2.r
.	.	.	8g#X/	.	8b\	.	.	.	.	.	.	.
.	.	.	8f#/	.	8dd\)	.	.	.	.	.	.	.
.	.	.	8e/	.	(8cc#\	.	.	.	.	.	.	.
.	.	.	8d/	.	8ff#\	.	.	.	.	.	.	.
.	.	.	8c#/J	.	8ee\J)	.	.	.	.	.	.	.
!	!	!	!LO:LB:g=original	!	!	!	!	!	!	!	!LO:PB:g=original	!
=34	=34	=34	=34	=34	=34	=34	=34	=34	=34	=34	=34	=34
*	*	*	*	*	*^	*	*	*	*	*	*	*
!	!	!	!	!LO:DY:b:rj:t=for&colon;	!	!	!LO:DY:b:rj:t=for	!	!	!	!	!	!
4D\	.	.	4a|/	f	4ff# 4a 4d/	4ryy	f	8D\	Je-	8ff#\	Je-	4ff#\	2aa\
.	.	.	.	.	.	.	.	8F#\	-su	8dd\	-su	.	.
4E\	6 4	.	(4a/	.	(<4cc#/	2e\	.	2E\	Chri-	(4cc#\	Chri-	2ee\	.
4EE/	7 #	.	4g#X/)	.	4bT/)	.	.	.	.	4bT\)	.	.	4gg#X\
*	*	*	*	*	*v	*v	*	*	*	*	*	*	*
!	!	!	!	!	!	!LO:LB:g=original	!	!	!	!	!	!
=35	=35	=35	=35	=35	=35	=35	=35	=35	=35	=35	=35	=35
*	*	*	*^	*	*	*	*	*	*	*	*	*
!	!	!	!LO:N:vis=8	!	!	!	!	!	!	!	!	!	!
8AA/L	.	.	16ee/LL	16cc#\LL	.	8a/	.	2AA/	-ste.	2a\	-ste	4ee\	4aa\
!	!	!	!LO:N:vis=8	!	!	!	!	!	!	!	!	!	!
.	.	.	16r	16a\	.	.	.	.	.	.	.	.	.
!	!	!	!LO:N:vis=8	!	!	!	!	!	!	!	!	!	!
8AA/	.	.	16ee/	16cc#\	.	4aa\	.	.	.	.	.	.	.
!	!	!	!LO:N:vis=8	!	!	!	!	!	!	!	!	!	!
.	.	.	16r	16a\JJ	.	.	.	.	.	.	.	.	.
!	!	!	!LO:N:vis=8	!	!	!	!	!	!	!	!	!	!
8AA/	.	.	16ee/	16cc#\LL	.	.	.	.	.	.	.	2a/	2ee\
!	!	!	!LO:N:vis=8	!	!	!	!	!	!	!	!	!	!
.	.	.	16r	16a\	.	.	.	.	.	.	.	.	.
!	!	!	!LO:N:vis=8	!	!	!	!	!	!	!	!	!	!
8AA/	.	.	16ee/	16cc#\	.	4ee\	.	.	.	.	.	.	.
!	!	!	!LO:N:vis=8	!	!	!	!	!	!	!	!	!	!
.	.	.	16r	16a\JJ	.	.	.	.	.	.	.	.	.
!	!	!	!LO:N:vis=8	!	!	!	!	!LO:TX:b:i:t=Volti	!	!	!	!	!
8AA/	.	.	16ee/	16cc#\LL	.	.	.	4r	.	4r	.	.	.
!	!	!	!LO:N:vis=8	!	!	!	!	!	!	!	!	!	!
.	.	.	16r	16a\	.	.	.	.	.	.	.	.	.
!	!	!	!LO:N:vis=8	!	!	!	!	!	!	!	!	!	!
8AA/J	.	.	16ee/JJ	16cc#\	.	[8cc#\	.	.	.	.	.	.	.
!	!	!	!LO:N:vis=8	!	!	!	!	!	!	!	!	!	!
.	.	.	16r	16a\JJ	.	.	.	.	.	.	.	.	.
!	!	!	!	!	!	!	!	!LO:PB:g=original	!	!	!	!	!
=36	=36	=36	=36	=36	=36	=36	=36	=36	=36	=36	=36	=36	=36
*tremolo	*	*	*	*	*	*	*	*	*	*	*	*	*
!	!	!	!LO:N:vis=8	!	!	!	!	!	!	!	!	!	!
8AA/L	.	.	16ee/LL	16cc#\LL	.	8cc#\]	.	4.A\	Do-	4.ee\	Do-	8r	8r
!	!	!	!LO:N:vis=8	!	!	!	!	!	!	!	!	!	!
.	.	.	16r	16a\	.	.	.	.	.	.	.	.	.
!	!	!	!LO:N:vis=8	!	!	!	!	!	!	!	!	!	!
8AA/	.	.	16ee/	16cc#\	.	4a/	.	.	.	.	.	16a/LL	16a/LL
!	!	!	!LO:N:vis=8	!	!	!	!	!	!	!	!	!	!
.	.	.	16r	16a\JJ	.	.	.	.	.	.	.	16a/JJ	16a/JJ
!	!	!	!LO:N:vis=8	!	!	!	!	!	!	!	!	!	!
8AA/	.	.	16ee/	16cc#\LL	.	.	.	.	.	.	.	8a/L	8a/L
!	!	!	!LO:N:vis=8	!	!	!	!	!	!	!	!	!	!
.	.	.	16r	16a\	.	.	.	.	.	.	.	.	.
!	!	!	!LO:N:vis=8	!	!	!	!	!	!	!	!	!	!
8AA/	.	.	16ee/	16cc#\	.	4e/	.	8A\	-mi-	8ee\	-mi-	8a/J	8a/J
!	!	!	!LO:N:vis=8	!	!	!	!	!	!	!	!	!	!
.	.	.	16r	16a\JJ	.	.	.	.	.	.	.	.	.
!	!	!	!LO:N:vis=8	!	!	!	!	!	!	!	!	!	!
8AA/	.	.	16ee/	16cc#\LL	.	.	.	4A\	-ne	4ee\	-ne	4a/	4a/
!	!	!	!LO:N:vis=8	!	!	!	!	!	!	!	!	!	!
.	.	.	16r	16a\	.	.	.	.	.	.	.	.	.
!	!	!	!LO:N:vis=8	!	!	!	!	!	!	!	!	!	!
8AA/J	.	.	16ee/JJ	16cc#\	.	8c#/	.	.	.	.	.	.	.
!	!	!	!LO:N:vis=8	!	!	!	!	!	!	!	!	!	!
.	.	.	16r	16a\JJ	.	.	.	.	.	.	.	.	.
=37	=37	=37	=37	=37	=37	=37	=37	=37	=37	=37	=37	=37	=37
!	!	!	!LO:N:vis=8	!	!	!	!	!	!	!	!	!	!
8AA/L	6 4	.	16ff#/LL	16dd\LL	.	8A/	.	2d\	De-	2ff#\	De-	2.dd\	2.ff#\
!	!	!	!LO:N:vis=8	!	!	!	!	!	!	!	!	!	!
.	.	.	16r	16a\	.	.	.	.	.	.	.	.	.
!	!	!	!LO:N:vis=8	!	!	!	!	!	!	!	!	!	!
8AA/	.	.	16ff#/	16dd\	.	4aa\	.	.	.	.	.	.	.
!	!	!	!LO:N:vis=8	!	!	!	!	!	!	!	!	!	!
.	.	.	16r	16a\JJ	.	.	.	.	.	.	.	.	.
!	!	!	!LO:N:vis=8	!	!	!	!	!	!	!	!	!	!
8AA/	.	.	16ff#/	16dd\LL	.	.	.	.	.	.	.	.	.
!	!	!	!LO:N:vis=8	!	!	!	!	!	!	!	!	!	!
.	.	.	16r	16a\	.	.	.	.	.	.	.	.	.
!	!	!	!LO:N:vis=8	!	!	!	!	!	!	!	!	!	!
8AA/	.	.	16ff#/	16dd\	.	4ff#\	.	.	.	.	.	.	.
!	!	!	!LO:N:vis=8	!	!	!	!	!	!	!	!	!	!
.	.	.	16r	16a\JJ	.	.	.	.	.	.	.	.	.
!	!	!	!LO:N:vis=8	!	!	!	!	!	!	!	!	!	!
8AA/	.	.	16ff#/	16dd\LL	.	.	.	4d\	-us	4ff#\	-us	.	.
!	!	!	!LO:N:vis=8	!	!	!	!	!	!	!	!	!	!
.	.	.	16r	16a\	.	.	.	.	.	.	.	.	.
!	!	!	!LO:N:vis=8	!	!	!	!	!	!	!	!	!	!
8AA/J	.	.	16ff#/JJ	16dd\	.	[8dd\	.	.	.	.	.	.	.
!	!	!	!LO:N:vis=8	!	!	!	!	!	!	!	!	!	!
.	.	.	16r	16a\JJ	.	.	.	.	.	.	.	.	.
=38	=38	=38	=38	=38	=38	=38	=38	=38	=38	=38	=38	=38	=38
!LO:TX:t=P:problem=brzeg karty zaklejony, nuty niewidoczne	!	!	!LO:N:vis=8	!	!	!	!	!	!	!	!	!	!
8AA/L	.	.	16ff#/LL	16dd\LL	.	8dd\]	.	2d\	A-	2ff#\	A-	8r	8r
!	!	!	!LO:N:vis=8	!	!	!	!	!	!	!	!	!	!
.	.	.	16r	16a\	.	.	.	.	.	.	.	.	.
!	!	!	!LO:N:vis=8	!	!	!	!	!	!	!	!	!	!
8AA/	.	.	16ff#/	16dd\	.	4a/	.	.	.	.	.	16a/LL	16a/LL
!	!	!	!LO:N:vis=8	!	!	!	!	!	!	!	!	!	!
.	.	.	16r	16a\JJ	.	.	.	.	.	.	.	16a/JJ	16a/JJ
!	!	!	!LO:N:vis=8	!	!	!	!	!	!	!	!	!	!
8AA/	.	.	16ff#/	16dd\LL	.	.	.	.	.	.	.	8a/L	8a/L
!	!	!	!LO:N:vis=8	!	!	!	!	!	!	!	!	!	!
.	.	.	16r	16a\	.	.	.	.	.	.	.	.	.
!	!	!	!LO:N:vis=8	!	!	!	!	!	!	!	!	!	!
8AA/	.	.	16ff#/	16dd\	.	4f#/	.	.	.	.	.	8a/J	8a/J
!	!	!	!LO:N:vis=8	!	!	!	!	!	!	!	!	!	!
.	.	.	16r	16a\JJ	.	.	.	.	.	.	.	.	.
!	!	!	!LO:N:vis=8	!	!	!	!	!	!	!	!	!	!
8AA/	.	.	16ff#/	16dd\LL	.	.	.	4d\	-gnus	4ff#\	-gnu	4a/	4a/
!	!	!	!LO:N:vis=8	!	!	!	!	!	!	!	!	!	!
.	.	.	16r	16a\	.	.	.	.	.	.	.	.	.
!	!	!	!LO:N:vis=8	!	!	!	!	!	!	!	!	!	!
8AA/J	.	.	16ff#/JJ	16dd\	.	8d/	.	.	.	.	.	.	.
!	!	!	!LO:N:vis=8	!	!	!	!	!	!	!	!	!	!
.	.	.	16r	16a\JJ	.	.	.	.	.	.	.	.	.
!LO:LB:g=original	!	!	!LO:LB:g=original	!LO:LB:g=original	!	!	!	!	!	!LO:LB:g=original	!	!	!LO:LB:g=original
=39	=39	=39	=39	=39	=39	=39	=39	=39	=39	=39	=39	=39	=39
!	!	!	!LO:N:vis=8	!	!	!	!	!	!	!	!	!	!
8AA/L	7 3	.	16ee/LL	16cc#\LL	.	8A/	.	2A\	De-	2ee\	De-	2.ee\	2.gg\
!	!	!	!LO:N:vis=8	!	!	!	!	!	!	!	!	!	!
.	.	.	16r	16a\	.	.	.	.	.	.	.	.	.
!	!	!	!LO:N:vis=8	!	!	!	!	!	!	!	!	!	!
8AA/	.	.	16ee/	16cc#\	.	4ggn\	.	.	.	.	.	.	.
!	!	!	!LO:N:vis=8	!	!	!	!	!	!	!	!	!	!
.	.	.	16r	16a\JJ	.	.	.	.	.	.	.	.	.
!	!	!	!LO:N:vis=8	!	!	!	!	!	!	!	!	!	!
8AA/	.	.	16ee/	16cc#\LL	.	.	.	.	.	.	.	.	.
!	!	!	!LO:N:vis=8	!	!	!	!	!	!	!	!	!	!
.	.	.	16r	16a\	.	.	.	.	.	.	.	.	.
!	!	!	!LO:N:vis=8	!	!	!	!	!	!	!	!	!	!
8AA/	.	.	16ee/	16cc#\	.	4ee\	.	.	.	.	.	.	.
!	!	!	!LO:N:vis=8	!	!	!	!	!	!	!	!	!	!
.	.	.	16r	16a\JJ	.	.	.	.	.	.	.	.	.
!	!	!	!LO:N:vis=8	!	!	!	!	!	!	!	!	!	!
8AA/	.	.	16ee/	16cc#\LL	.	.	.	4A\	-i	4ee\	-i	.	.
!	!	!	!LO:N:vis=8	!	!	!	!	!	!	!	!	!	!
.	.	.	16r	16a\	.	.	.	.	.	.	.	.	.
!	!	!	!LO:N:vis=8	!	!	!	!	!	!	!	!	!	!
8AA/J	.	.	16ee/JJ	16cc#\	.	[8cc#\	.	.	.	.	.	.	.
!	!	!	!LO:N:vis=8	!	!	!	!	!	!	!	!	!	!
.	.	.	16r	16a\JJ	.	.	.	.	.	.	.	.	.
=40	=40	=40	=40	=40	=40	=40	=40	=40	=40	=40	=40	=40	=40
!	!	!	!LO:N:vis=8	!	!	!	!	!	!	!	!	!	!
8AA/L	7 3	.	16ee/LL	16cc#\LL	.	8cc#\]	.	4.A\	fi-	4.ee\	fi-	8r	8r
!	!	!	!LO:N:vis=8	!	!	!	!	!	!	!	!	!	!
.	.	.	16r	16a\	.	.	.	.	.	.	.	.	.
!	!	!	!LO:N:vis=8	!	!	!	!	!	!	!	!	!	!
8AA/	.	.	16ee/	16cc#\	.	4g/	.	.	.	.	.	16a/LL	16a/LL
!	!	!	!LO:N:vis=8	!	!	!	!	!	!	!	!	!	!
.	.	.	16r	16a\JJ	.	.	.	.	.	.	.	16a/JJ	16a/JJ
!	!	!	!LO:N:vis=8	!	!	!	!	!	!	!	!	!	!
8AA/	.	.	16ee/	16cc#\LL	.	.	.	.	.	.	.	8a/L	8a/L
!	!	!	!LO:N:vis=8	!	!	!	!	!	!	!	!	!	!
.	.	.	16r	16a\	.	.	.	.	.	.	.	.	.
!	!	!	!LO:N:vis=8	!	!	!	!	!	!	!	!	!	!
8AA/	.	.	16ee/	16cc#\	.	4e/	.	8A\	-li-	8ee\	-li-	8a/J	8a/J
!	!	!	!LO:N:vis=8	!	!	!	!	!	!	!	!	!	!
.	.	.	16r	16a\JJ	.	.	.	.	.	.	.	.	.
!	!	!	!LO:N:vis=8	!	!	!	!	!	!	!	!	!	!
8AA/	.	.	16ee/	16cc#\LL	.	.	.	4A\	-us	4ee\	-us	4a/	4a/
!	!	!	!LO:N:vis=8	!	!	!	!	!	!	!	!	!	!
.	.	.	16r	16a\	.	.	.	.	.	.	.	.	.
!	!	!	!LO:N:vis=8	!	!	!	!	!	!	!	!	!	!
8AA/J	.	.	16ee/JJ	16cc#\	.	8c#/	.	.	.	.	.	.	.
!	!	!	!LO:N:vis=8	!	!	!	!	!	!	!	!	!	!
.	.	.	16r	16a\JJ	.	.	.	.	.	.	.	.	.
*Xtremolo	*	*	*	*	*	*	*	*	*	*	*	*	*
=41	=41	=41	=41	=41	=41	=41	=41	=41	=41	=41	=41	=41	=41
!	!	!	!LO:N:vis=8	!	!	!	!	!	!	!	!	!	!
8D/L	.	.	16a/LL	16f#\LL	.	8d/	.	4d\	pa-	4dd\	Pa-	2.ff#\	2.aa\
!	!	!	!LO:N:vis=8	!	!	!	!	!	!	!	!	!	!
.	.	.	16r	16d\	.	.	.	.	.	.	.	.	.
!	!	!	!LO:N:vis=8	!	!	!	!	!	!	!	!	!	!
8D/	.	.	16a/	16f#\	.	4ddd\	.	.	.	.	.	.	.
!	!	!	!LO:N:vis=8	!	!	!	!	!	!	!	!	!	!
.	.	.	16r	16d\JJ	.	.	.	.	.	.	.	.	.
!	!	!	!LO:N:vis=8	!	!	!	!	!	!	!	!	!	!
8D/	.	.	16a/	16f#\LL	.	.	.	4D/	-tris	4a\	-tris	.	.
!	!	!	!LO:N:vis=8	!	!	!	!	!	!	!	!	!	!
.	.	.	16r	16d\	.	.	.	.	.	.	.	.	.
!	!	!	!LO:N:vis=8	!	!	!	!	!	!	!	!	!	!
8D/	.	.	16a/	16f#\	.	4aa\	.	.	.	.	.	.	.
!	!	!	!LO:N:vis=8	!	!	!	!	!	!	!	!	!	!
.	.	.	16r	16d\JJ	.	.	.	.	.	.	.	.	.
!	!	!	!LO:N:vis=8	!	!	!	!	!	!	!	!	!	!
8D/	.	.	16a/	16f#\LL	.	.	.	4r	.	4r	.	.	.
!	!	!	!LO:N:vis=8	!	!	!	!	!	!	!	!	!	!
.	.	.	16r	16d\	.	.	.	.	.	.	.	.	.
!	!	!	!LO:N:vis=8	!	!	!	!	!	!	!	!	!	!
8D/J	.	.	16a/JJ	16f#\	.	[8ff#\	.	.	.	.	.	.	.
!	!	!	!LO:N:vis=8	!	!	!	!	!	!	!	!	!	!
.	.	.	16r	16d\JJ	.	.	.	.	.	.	.	.	.
=42	=42	=42	=42	=42	=42	=42	=42	=42	=42	=42	=42	=42	=42
*tremolo	*	*	*	*	*	*	*	*	*	*	*	*	*
!	!	!	!LO:N:vis=8	!	!	!	!	!	!	!	!	!	!
8D/L	.	.	16a/LL	16f#\LL	.	8ff#\]	.	8F#\	Qui	8a\	Qui	8r	8r
!	!	!	!LO:N:vis=8	!	!	!	!	!	!	!	!	!	!
.	.	.	16r	16d\	.	.	.	.	.	.	.	.	.
!	!	!	!LO:N:vis=8	!	!	!	!	!	!	!	!	!	!
8D/	.	.	16a/	16f#\	.	4dd\	.	8F#\	tol-	8a\	tol-	16d/LL	16d/LL
!	!	!	!LO:N:vis=8	!	!	!	!	!	!	!	!	!	!
.	.	.	16r	16d\JJ	.	.	.	.	.	.	.	16d/JJ	16d/JJ
!	!	!	!LO:N:vis=8	!	!	!	!	!	!	!	!	!	!
8D/	.	.	16a/	16f#\LL	.	.	.	8F#\	-lis	8a\	-lis	8d/L	8d/L
!	!	!	!LO:N:vis=8	!	!	!	!	!	!	!	!	!	!
.	.	.	16r	16d\	.	.	.	.	.	.	.	.	.
!	!	!	!LO:N:vis=8	!	!	!	!	!	!	!	!	!	!
8D/	.	.	16a/	16f#\	.	4a/	.	8F#\	pe-	8a\	pec-	8d/J	8d/J
!	!	!	!LO:N:vis=8	!	!	!	!	!	!	!	!	!	!
.	.	.	16r	16d\JJ	.	.	.	.	.	.	.	.	.
!	!	!	!LO:N:vis=8	!	!	!	!	!	!	!	!	!	!
8D/	.	.	16a/	16f#\LL	.	.	.	8F#\	-ca-	8a\	-ca-	4d/	4d/
!	!	!	!LO:N:vis=8	!	!	!	!	!	!	!	!	!	!
.	.	.	16r	16d\	.	.	.	.	.	.	.	.	.
!	!	!	!LO:N:vis=8	!	!	!	!	!	!	!	!	!	!
8D/J	.	.	16a/JJ	16f#\	.	8f#/	.	8F#\	-ta	8a\	-ta	.	.
!	!	!	!LO:N:vis=8	!	!	!	!	!	!	!	!	!	!
.	.	.	16r	16d\JJ	.	.	.	.	.	.	.	.	.
!	!	!	!	!	!	!	!	!	!	!	!	!LO:LB:g=original	!
=43	=43	=43	=43	=43	=43	=43	=43	=43	=43	=43	=43	=43	=43
!	!	!	!LO:N:vis=8	!	!	!	!	!	!	!	!	!	!
8D/L	6 4	.	16b/LL	16g\LL	.	8d/	.	2G\	mun-	2b\	mun-	2.gg\	2.bb\
!	!	!	!LO:N:vis=8	!	!	!	!	!	!	!	!	!	!
.	.	.	16r	16d\	.	.	.	.	.	.	.	.	.
!	!	!	!LO:N:vis=8	!	!	!	!	!	!	!	!	!	!
8D/	.	.	16b/	16g\	.	4ddd\	.	.	.	.	.	.	.
!	!	!	!LO:N:vis=8	!	!	!	!	!	!	!	!	!	!
.	.	.	16r	16d\JJ	.	.	.	.	.	.	.	.	.
!	!	!	!LO:N:vis=8	!	!	!	!	!	!	!	!	!	!
8D/	.	.	16b/	16g\LL	.	.	.	.	.	.	.	.	.
!	!	!	!LO:N:vis=8	!	!	!	!	!	!	!	!	!	!
.	.	.	16r	16d\	.	.	.	.	.	.	.	.	.
!	!	!	!LO:N:vis=8	!	!	!	!	!	!	!	!	!	!
8D/	.	.	16b/	16g\	.	4bb\	.	.	.	.	.	.	.
!	!	!	!LO:N:vis=8	!	!	!	!	!	!	!	!	!	!
.	.	.	16rL	16d\JJ	.	.	.	.	.	.	.	.	.
!	!	!	!LO:N:vis=8	!	!	!	!	!	!	!	!	!	!
8D/	.	.	16b/	16g\LL	.	.	.	4G\	-di	4b\	-di	.	.
!	!	!	!LO:N:vis=8	!	!	!	!	!	!	!	!	!	!
.	.	.	16r	16d\	.	.	.	.	.	.	.	.	.
!	!	!	!LO:N:vis=8	!	!	!	!	!	!	!	!	!	!
8D/J	.	.	16b/JJ	16g\	.	[8gg\	.	.	.	.	.	.	.
!	!	!	!LO:N:vis=8	!	!	!	!	!	!	!	!	!	!
.	.	.	16r	16d\JJ	.	.	.	.	.	.	.	.	.
!	!	!	!LO:LB:g=original	!LO:LB:g=original	!	!	!	!LO:LB:g=original	!	!	!	!	!
=44	=44	=44	=44	=44	=44	=44	=44	=44	=44	=44	=44	=44	=44
!	!	!	!LO:N:vis=8	!	!	!	!	!	!	!	!	!	!
8D/L	6 4	.	16b/LL	16g\LL	.	8gg\]	.	8G\	Su-	4.b\	mi-	8r	8r
!	!	!	!LO:N:vis=8	!	!	!	!	!	!	!	!	!	!
.	.	.	16r	16d\	.	.	.	.	.	.	.	.	.
!	!	!	!LO:N:vis=8	!	!	!	!	!	!	!	!	!	!
8D/	.	.	16b/	16g\	.	4dd\	.	16G\	-sci-	.	.	16d/LL	16d/LL
!	!	!	!LO:N:vis=8	!	!	!	!	!	!	!	!	!	!
.	.	.	16r	16d\JJ	.	.	.	16G\	-pe	.	.	16d/JJ	16d/JJ
!	!	!	!LO:N:vis=8	!	!	!	!	!	!	!	!	!	!
8D/	.	.	16b/	16g\LL	.	.	.	8G\	de-	.	.	8d/L	8d/L
!	!	!	!LO:N:vis=8	!	!	!	!	!	!	!	!	!	!
.	.	.	16r	16d\	.	.	.	.	.	.	.	.	.
!	!	!	!LO:N:vis=8	!	!	!	!	!	!	!	!	!	!
8D/	.	.	16b/	16g\	.	4b\	.	8G\	-pre-	8b\	-se-	8d/J	8d/J
!	!	!	!LO:N:vis=8	!	!	!	!	!	!	!	!	!	!
.	.	.	16r	16d\JJ	.	.	.	.	.	.	.	.	.
!	!	!	!LO:N:vis=8	!	!	!	!	!	!	!	!	!	!
8D/	.	.	16b/	16g\LL	.	.	.	8G\	-ca-	8b\	-re-	4d/	4d/
!	!	!	!LO:N:vis=8	!	!	!	!	!	!	!	!	!	!
.	.	.	16r	16d\	.	.	.	.	.	.	.	.	.
!	!	!	!LO:N:vis=8	!	!	!	!	!	!	!	!	!	!
8D/J	.	.	16b/JJ	16g\	.	8g/	.	8G\	-ti-	8b\	-re	.	.
!	!	!	!LO:N:vis=8	!	!	!	!	!	!	!	!	!	!
.	.	.	16r	16d\JJ	.	.	.	.	.	.	.	.	.
=45	=45	=45	=45	=45	=45	=45	=45	=45	=45	=45	=45	=45	=45
!	!	!	!LO:N:vis=8	!	!	!	!	!	!	!	!	!	!
8D/L	n7r 3	.	16a/LL	16f#\LL	.	8d/	.	2F#\	-o-	2.a\	no-	2.ff#\	2.aa\
!	!	!	!LO:N:vis=8	!	!	!	!	!	!	!	!	!	!
.	.	.	16r	16d\	.	.	.	.	.	.	.	.	.
!	!	!	!LO:N:vis=8	!	!	!	!	!	!	!	!	!	!
8D/	.	.	16a/	16f#\	.	4cccn\	.	.	.	.	.	.	.
!	!	!	!LO:N:vis=8	!	!	!	!	!	!	!	!	!	!
.	.	.	16r	16d\JJ	.	.	.	.	.	.	.	.	.
!	!	!	!LO:N:vis=8	!	!	!	!	!	!	!	!	!	!
8D/	.	.	16a/	16f#\LL	.	.	.	.	.	.	.	.	.
!	!	!	!LO:N:vis=8	!	!	!	!	!	!	!	!	!	!
.	.	.	16r	16d\	.	.	.	.	.	.	.	.	.
!	!	!	!LO:N:vis=8	!	!	!	!	!	!	!	!	!	!
8D/	.	.	16a/	16f#\	.	4aa\	.	.	.	.	.	.	.
!	!	!	!LO:N:vis=8	!	!	!	!	!	!	!	!	!	!
.	.	.	16r	16d\JJ	.	.	.	.	.	.	.	.	.
!	!	!	!LO:N:vis=8	!	!	!	!	!	!	!	!	!	!
8D/	.	.	16a/	16f#\LL	.	.	.	4F#\	-nem	.	.	.	.
!	!	!	!LO:N:vis=8	!	!	!	!	!	!	!	!	!	!
.	.	.	16r	16d\	.	.	.	.	.	.	.	.	.
!	!	!	!LO:N:vis=8	!	!	!	!	!	!	!	!	!	!
8D/J	.	.	16a/JJ	16f#\	.	[8ff#\	.	.	.	.	.	.	.
!	!	!	!LO:N:vis=8	!	!	!	!	!	!	!	!	!	!
.	.	.	16r	16d\JJ	.	.	.	.	.	.	.	.	.
!	!	!	!	!	!	!	!	!	!	!LO:LB:g=original	!	!	!
=46	=46	=46	=46	=46	=46	=46	=46	=46	=46	=46	=46	=46	=46
!	!	!	!LO:N:vis=8	!	!	!	!	!	!	!	!	!	!
8D/L	n7r	.	16a/LL	16f#\LL	.	8ff#\]	.	2F#\	noſ-	2.a\	-bis,	8r	8r
!	!	!	!LO:N:vis=8	!	!	!	!	!	!	!	!	!	!
.	.	.	16r	16d\	.	.	.	.	.	.	.	.	.
!	!	!	!LO:N:vis=8	!	!	!	!	!	!	!	!	!	!
8D/	.	.	16a/	16f#\	.	4ccn\	.	.	.	.	.	16d/LL	16d/LL
!	!	!	!LO:N:vis=8	!	!	!	!	!	!	!	!	!	!
.	.	.	16r	16d\JJ	.	.	.	.	.	.	.	16d/JJ	16d/JJ
!	!	!	!LO:N:vis=8	!	!	!	!	!	!	!	!	!	!
8D/	.	.	16a/	16f#\LL	.	.	.	.	.	.	.	8d/L	8d/L
!	!	!	!LO:N:vis=8	!	!	!	!	!	!	!	!	!	!
.	.	.	16r	16d\	.	.	.	.	.	.	.	.	.
!	!	!	!LO:N:vis=8	!	!	!	!	!	!	!	!	!	!
8D/	.	.	16a/	16f#\	.	4a\	.	.	.	.	.	8d/J	8d/J
!	!	!	!LO:N:vis=8	!	!	!	!	!	!	!	!	!	!
.	.	.	16r	16d\JJ	.	.	.	.	.	.	.	.	.
!	!	!	!LO:N:vis=8	!	!	!	!	!	!	!	!	!	!
8D/	.	.	16a/	16f#\LL	.	.	.	4F#\	-tra(m)	.	.	4d/	4d/
!	!	!	!LO:N:vis=8	!	!	!	!	!	!	!	!	!	!
.	.	.	16r	16d\	.	.	.	.	.	.	.	.	.
!	!	!	!LO:N:vis=8	!	!	!	!	!	!	!	!	!	!
8D/J	.	.	16a/JJ	16f#\	.	8f#/	.	.	.	.	.	.	.
!	!	!	!LO:N:vis=8	!	!	!	!	!	!	!	!	!	!
.	.	.	16r	16d\JJ	.	.	.	.	.	.	.	.	.
*Xtremolo	*	*	*	*	*	*	*	*	*	*	*	*	*
*	*	*	*v	*v	*	*	*	*	*	*	*	*	*
=47	=47	=47	=47	=47	=47	=47	=47	=47	=47	=47	=47	=47
!	!	!	!LO:TX:t=P:problem=mixed beam	!	!LO:TX:t=P:problem=mixed beam	!	!	!	!	!	!	!
4GG/	.	.	8g/L	.	8g/L	.	4G\	qui	4b\	qui	2.gg\	2.bb\
.	.	.	16gg\L	.	16bb\L	.	.	.	.	.	.	.
.	.	.	16ff#\JJ	.	16aa\JJ	.	.	.	.	.	.	.
!	!	!	!	!	!LO:LB:g=original	!	!	!	!	!	!	!
!	!	!	!LO:TX:t=P:problem=mixed beam	!	!LO:TX:t=P:problem=mixed beam	!	!	!	!	!	!	!
8r	.	.	8gg\L	.	8bb\L	.	4B\	se-	4gg\	se-	.	.
8G|\L	.	.	8g/	.	8g/	.	.	.	.	.	.	.
8E|\	.	.	8e/	.	8e/	.	4B\	-des	4gg\	-des	.	.
8G|\J	.	.	8g/J	.	8g/J	.	.	.	.	.	.	.
=48	=48	=48	=48	=48	=48	=48	=48	=48	=48	=48	=48	=48
!	!	!	!LO:TX:t=P:problem=mixed beam	!	!LO:TX:t=P:problem=mixed beam	!	!	!	!	!	!	!
2C#/	7	.	8c#/L	.	8c#X/L	.	2B\	ad	2gg\	ad	8r	8r
.	.	.	8gg\J	.	8bb\J	.	.	.	.	.	8gg\L	8bb\L
.	.	.	8gg\L	.	(8bb\L	.	.	.	.	.	8gg\	8bb\
.	.	.	8ff#\	.	8aa\)	.	.	.	.	.	8ff#\	8aa\
4r	.	.	(8ff#\	.	(8aa\	.	4r	.	4r	.	8ff#\	8aa\
.	.	.	8ee\J)	.	8gg\J)	.	.	.	.	.	8ee\J	8gg\J
!	!	!	!	!	!	!	!	!	!	!	!	!LO:PB:g=original
=49	=49	=49	=49	=49	=49	=49	=49	=49	=49	=49	=49	=49
*	*	*	*	*	*	*	*	*ij	*	*ij	*	*
!	!	!	!LO:TX:t=P:problem=mixed beam	!	!LO:TX:t=P:problem=mixed beam	!	!	!	!	!	!	!
4F#\	3	.	8f#/L	.	8f#/L	.	2A\	ad	2ff#\	ad	2.ff#\	2.aa\
*	*	*	*	*	*	*	*	*	*	*Xij	*	*
.	.	.	16ff#\L	.	16aa\L	.	.	.	.	.	.	.
.	.	.	16ee\JJ	.	(16gg\JJ	.	.	.	.	.	.	.
!	!	!	!LO:TX:t=P:problem=mixed beam	!	!LO:TX:t=P:problem=mixed beam	!	!	!	!	!	!	!
8r	.	.	8ff#\L	.	8aa\L)	.	.	.	.	.	.	.
8F#|\L	.	.	8f#/	.	8f#/	.	.	.	.	.	.	.
8D|\	.	.	8d/	.	8d/	.	4r	.	4r	.	.	.
8F#|\J	.	.	8f#/J	.	8f#/J	.	.	.	.	.	.	.
!	!	!	!LO:LB:g=original	!	!	!	!	!	!	!	!	!
=50	=50	=50	=50	=50	=50	=50	=50	=50	=50	=50	=50	=50
!	!	!	!LO:TX:t=P:problem=mixed beam	!	!LO:TX:t=P:problem=mixed beam	!	!	!	!	!	!	!
2BB/	7	.	8B/L	.	8B/L	.	2A\	ad	2ff#\	ad	8r	8r
.	.	.	8ff#\J	.	8aa\J	.	.	.	.	.	8ff#\L	8aa\L
.	.	.	(8ff#\L	.	(8aa\L	.	.	.	.	.	8ff#\	8aa\
.	.	.	8ee\)	.	8gg\	.	.	.	.	.	8ee\	8gg\
4r	.	.	(8ee\	.	8gg\)	.	4r	.	4r	.	8ee\	8gg\
.	.	.	8dd\J)	.	8ff#\J	.	.	.	.	.	8dd\J	8ff#\J
=51	=51	=51	=51	=51	=51	=51	=51	=51	=51	=51	=51	=51
*	*	*	*	*	*	*	*	*	*	*ij	*	*
!	!	!	!LO:TX:t=P:problem=mixed beam	!	!LO:TX:t=P:problem=mixed beam	!	!	!	!	!	!	!
4E\	3	.	8e/L	.	8e/L	.	2G\	ad	2ee\	ad	2.ee\	2.gg\
*	*	*	*	*	*	*	*	*	*	*Xij	*	*
.	.	.	16ee\L	.	16gg\L	.	.	.	.	.	.	.
.	.	.	16dd\JJ	.	(16ff#\JJ	.	.	.	.	.	.	.
!	!	!	!LO:TX:t=P:problem=mixed beam	!	!LO:TX:t=P:problem=mixed beam	!	!	!	!	!	!	!
8r	.	.	8ee\L	.	8gg\L)	.	.	.	.	.	.	.
8E|\L	.	.	8e|/	.	8e/	.	.	.	.	.	.	.
8C#|\	.	.	8c#|/	.	8c#/	.	4r	.	4r	.	.	.
8E|\J	.	.	8e|/J	.	8e/J	.	.	.	.	.	.	.
=52	=52	=52	=52	=52	=52	=52	=52	=52	=52	=52	=52	=52
!	!	!	!LO:TX:t=P:problem=mixed beam	!	!LO:TX:t=P:problem=mixed beam	!	!	!	!	!	!	!
2AA/	7	.	8A/L	.	8A/L	.	2G\	ad	2ee\	ad	8r	8r
*	*	*	*	*	*	*	*	*Xij	*	*	*	*
.	.	.	8ee|\J	.	8gg|\J	.	.	.	.	.	8ee\L	8gg\L
.	.	.	(8ee\L	.	(8gg\L	.	.	.	.	.	8ee\	8gg\
.	.	.	8dd\)	.	8ff#\)	.	.	.	.	.	8dd\	8ff#\
4r	.	.	(8dd\	.	(8ff#\	.	4r	.	4r	.	8dd\	8ff#\
.	.	.	8cc#\J)	.	8ee\J)	.	.	.	.	.	8a\J	8ee\J
!	!	!	!	!	!	!	!	!	!	!	!LO:LB:g=original	!
=53	=53	=53	=53	=53	=53	=53	=53	=53	=53	=53	=53	=53
!	!	!	!LO:TX:t=P:problem=mixed beam	!	!	!	!	!	!	!	!	!
8D/L	3	.	16a/LL	.	8.ff#t\L	.	8F#\	dex-	8dd\	dex-	4a/	4ff#\
.	.	.	16aa\	.	.	.	.	.	.	.	.	.
8AA/	.	.	16a/	.	.	.	8F#\	-te-	8dd\	-te-	.	.
.	.	.	16a/JJ	.	(32ee\LL	.	.	.	.	.	.	.
.	.	.	.	.	32ff#\JJJ)	.	.	.	.	.	.	.
!	!	!	!	!	!	!	!LO:LB:g=original	!	!	!	!	!
8E/	6	.	16a/LL	.	4gg\	.	4E\	-ram	4cc#\	-ram	8a/L	2gg\
.	.	.	16a/	.	.	.	.	.	.	.	.	.
8AA/	.	.	16a/	.	.	.	.	.	.	.	8a/J	.
.	.	.	16a/JJ	.	.	.	.	.	.	.	.	.
8C#/	6 5	.	16a/LL	.	8r	.	8r	.	8r	.	4a/	.
.	.	.	16a/	.	.	.	.	.	.	.	.	.
8AA/J	.	.	16a/	.	8ee|\	.	(8E\	Pa-	(8cc#\	Pa-	.	.
.	.	.	16a/JJ	.	.	.	.	.	.	.	.	.
=54	=54	=54	=54	=54	=54	=54	=54	=54	=54	=54	=54	=54
!	!	!	!LO:TX:t=P:problem=mixed beam	!	!	!	!	!	!	!	!	!
8D/L	3	.	16a/LL	.	8.ff#t\L	.	4F#\)	.	4dd\)	.	4a/	8ff#\L
.	.	.	16aa\	.	.	.	.	.	.	.	.	.
8AA/	.	.	16a/	.	.	.	.	.	.	.	.	8aa\J
.	.	.	16a/JJ	.	(32ee\LL	.	.	.	.	.	.	.
.	.	.	.	.	32ff#\JJJ)	.	.	.	.	.	.	.
*	*	*	*tremolo	*	*	*	*	*	*	*	*	*
8E/	6	.	16a/LL	.	4gg\	.	4E\	-tris	4cc#\	-tris	8a/L	2gg\
.	.	.	16a/	.	.	.	.	.	.	.	.	.
8AA/J	.	.	16a/	.	.	.	.	.	.	.	8a/J	.
.	.	.	16a/	.	.	.	.	.	.	.	.	.
!LO:TX:t=P:problem=brzeg karty zaklejony, nuty niewidoczne	!	!	!	!	!	!	!	!	!	!	!	!
4ryy	.	.	16a/	.	8r	.	8c#\	mi-	8ee\L	mi-	4a/	.
.	.	.	16a/	.	.	.	.	.	.	.	.	.
!	!	!	!	!	!	!	!	!	!LO:TX:t=P:problem=brzeg karty zaklejony, nuty niewidoczne	!	!	!
.	.	.	16a/	.	8ee|\	.	8A\	-ſe-	8ee\Jyy	-s-	.	.
.	.	.	16a/JJ	.	.	.	.	.	.	.	.	.
*	*	*	*Xtremolo	*	*	*	*	*	*	*	*	*
!LO:LB:g=original	!	!	!	!	!	!	!	!	!LO:LB:g=original	!	!	!
=55	=55	=55	=55	=55	=55	=55	=55	=55	=55	=55	=55	=55
!	!	!	!	!	!	!	!	!	!	!	!LO:TX:t=P:problem=mixed beam	!
8D\L	.	.	8a/	.	(32ff#\LLL	.	8d\	-re-	8dd\	-re-	8dd\L	8ff#\L
.	.	.	.	.	32ee\JJ)	.	.	.	.	.	.	.
.	.	.	.	.	8.dd\J	.	.	.	.	.	.	.
8F#\J	.	.	4dd\	.	.	.	8F#\	-re	8dd\	-re	8f#/J	8aa\J
.	.	.	.	.	8qqff#/	.	.	.	.	.	.	.
4G\	6 5	.	.	.	2eeT\	.	(4G\	no-	(4dd\	no-	4a/	4ee\
.	.	.	8b\	.	.	.	.	.	.	.	.	.
4A\	.	.	4cc#t\	.	.	.	4A\)	.	4cc#t\)	.	8.a/L	8.ee\L
.	.	.	.	.	.	.	.	.	.	.	16f#/Jk	16dd\Jk
=56	=56	=56	=56	=56	=56	=56	=56	=56	=56	=56	=56	=56
4D/	.	.	8dd\L	.	8dd\L	.	4D/	-bis	4dd\	-bis	4f#/	4dd\
.	.	.	8ff#\	.	8ddd'\	.	.	.	.	.	.	.
4r	.	.	8ee\	.	8ccc#\	.	4r	.	4r	.	4r	4r
.	.	.	8dd\	.	8bb\	.	.	.	.	.	.	.
4r	.	.	8cc#\	.	8aa\	.	4r	.	4r	.	4r	4r
.	.	.	8a\J	.	(8gg\J	.	.	.	.	.	.	.
!	!	!	!	!	!LO:LB:g=original	!	!	!	!	!	!	!
=57	=57	=57	=57	=57	=57	=57	=57	=57	=57	=57	=57	=57
!LO:TX:a:t=1	!	!	!	!	!	!	!	!	!	!	!	!LO:TX:a:t=1
2.r	.	.	8dd\L	.	8ff#\L)	.	2.r	.	2.r	.	2.r	2.r
.	.	.	8cc#\	.	8ee\	.	.	.	.	.	.	.
.	.	.	8b\	.	(8gg\	.	.	.	.	.	.	.
.	.	.	8a\	.	8ff#\)	.	.	.	.	.	.	.
.	.	.	8g\	.	(8bb\	.	.	.	.	.	.	.
.	.	.	8f#\J	.	8aa\J)	.	.	.	.	.	.	.
!	!	!	!LO:LB:g=original	!	!	!	!	!	!	!	!	!
=58	=58	=58	=58	=58	=58	=58	=58	=58	=58	=58	=58	=58
4G\	.	.	(32dd\LLL	.	16bb\LL	.	4r	.	4r	.	4r	4r
.	.	.	32cc#\JJ)	.	.	.	.	.	.	.	.	.
.	.	.	8.b\J	.	16ccc#\J	.	.	.	.	.	.	.
.	.	.	.	.	8ddd\J	.	.	.	.	.	.	.
4A\	6 4	.	4dd\	.	4ff#\	.	(4A\	no-	(4dd\	no-	4dd\	4ff#\
4AA/	7 3	.	4cc#t\	.	4eeT\	.	4AA/)	.	4cc#t\)	.	4a/	4ee\
=59	=59	=59	=59	=59	=59	=59	=59	=59	=59	=59	=59	=59
4D\	.	.	8dd\L	.	8ff#|\L	.	4D/	-bis	4dd\	-bis	4f#/	4dd\
!	!	!	!	!LO:DY:b:t=p&colon;	!	!	!	!	!	!	!	!
.	.	.	8ff#\	p	8ddd|\	.	.	.	.	.	.	.
!	!	!	!	!	!	!LO:DY:b:t=p&colon;	!	!	!	!	!	!
4r	.	.	8ee\	.	8ccc#|\	p	4r	.	4r	.	4r	4r
.	.	.	8dd\	.	(8bb\	.	.	.	.	.	.	.
4r	.	.	8cc#\	.	8aa\)	.	4r	.	4r	.	4r	4r
.	.	.	8a\J	.	(8gg\J	.	.	.	.	.	.	.
!	!	!	!	!	!	!	!	!	!	!	!	!LO:LB:g=original
=60	=60	=60	=60	=60	=60	=60	=60	=60	=60	=60	=60	=60
!LO:TX:a:t=1	!	!	!	!	!	!	!	!	!	!	!	!LO:TX:a:t=1
2.r	.	.	8dd\L	.	8ff#\L)	.	2.r	.	2.r	.	2.r	2.r
.	.	.	8cc#\	.	(8ee\	.	.	.	.	.	.	.
.	.	.	8b\	.	8gg\)	.	.	.	.	.	.	.
.	.	.	8a\	.	(8ff#\	.	.	.	.	.	.	.
.	.	.	8g\	.	(8bb\)	.	.	.	.	.	.	.
.	.	.	8f#\J	.	8aa\J)	.	.	.	.	.	.	.
=61	=61	=61	=61	=61	=61	=61	=61	=61	=61	=61	=61	=61
!	!	!	!	!LO:DY:b:t=for	!	!	!	!	!	!	!	!
4G\	.	.	(32dd\LLL	f	(32bb\LLL	.	4r	.	4r	.	4r	4r
.	.	.	32cc#\JJ)	.	32ccc#\JJ	.	.	.	.	.	.	.
!	!	!	!	!	!	!LO:DY:b:t=for	!	!	!	!	!	!
.	.	.	8.b\J	.	8.ddd\J)	f	.	.	.	.	.	.
4A\	6 4	.	4dd\	.	(4ff#\	.	(4A\	no-	(4ff#\	no-	4dd\	4ff#\
4AA/	7 3	.	4cc#t\	.	4eeT\)	.	4AA/)	.	4eeT\)	.	4a/	4ee\
=62	=62	=62	=62	=62	=62	=62	=62	=62	=62	=62	=62	=62
2.d\	8	.	16r	.	16r	.	4D/	-bis	4dd\	-bis	4f#/	4dd\
.	.	.	16dd\LL	.	16dd\LL	.	.	.	.	.	.	.
.	.	.	16ee\	.	16ee\	.	.	.	.	.	.	.
.	.	.	16ff#\JJ	.	16ff#\JJ	.	.	.	.	.	.	.
.	.	.	16gg\LL	.	16gg\LL	.	4d\	mi-	4dd\	mi-	4r	4r
.	.	.	16aa\	.	16aa\	.	.	.	.	.	.	.
.	.	.	16bb\	.	16bb\	.	.	.	.	.	.	.
.	.	.	16ccc#\JJ	.	16ccc#\JJ	.	.	.	.	.	.	.
.	.	.	8ddd|\L	.	8ddd|\L	.	4d\	-ſe-	4dd\	-se-	4r	4r
.	.	.	8dd|\J	.	8dd|\J	.	.	.	.	.	.	.
!	!	!	!	!	!	!	!LO:LB:g=original	!	!	!	!LO:LB:g=original	!
=63	=63	=63	=63	=63	=63	=63	=63	=63	=63	=63	=63	=63
2.A\	8	.	16r	.	16r	.	2.A\	-re-	2.a\	-re-	4a/	4a/
.	.	.	16a\LL	.	16a\LL	.	.	.	.	.	.	.
.	.	.	16b\	.	16b\	.	.	.	.	.	.	.
.	.	.	16cc#\JJ	.	16cc#\JJ	.	.	.	.	.	.	.
.	.	.	16dd\LL	.	16dd\LL	.	.	.	.	.	4r	4r
.	.	.	16ee\	.	16ee\	.	.	.	.	.	.	.
.	.	.	16ff#\	.	16ff#\	.	.	.	.	.	.	.
.	.	.	16gg#X\JJ	.	16gg#X\JJ	.	.	.	.	.	.	.
!	!	!	!LO:TX:t=P:problem=mixed beam	!	!LO:TX:t=P:problem=mixed beam	!	!	!	!	!	!	!
.	.	.	8aa|>\L	.	8aa\L	.	.	.	.	.	4r	4r
.	.	.	8a|/J	.	8a|/J	.	.	.	.	.	.	.
!	!	!	!	!	!	!	!	!	!LO:LB:g=original	!	!	!
=64	=64	=64	=64	=64	=64	=64	=64	=64	=64	=64	=64	=64
2.F#\	8	.	16r	.	16r	.	2.F#\	.	2.f#/	.	4f#/	4f#/
.	.	.	16f#/LL	.	16f#/LL	.	.	.	.	.	.	.
.	.	.	16g/	.	16g/	.	.	.	.	.	.	.
.	.	.	16a/JJ	.	16a/JJ	.	.	.	.	.	.	.
.	.	.	16b\LL	.	16b\LL	.	.	.	.	.	4r	4r
.	.	.	16cc#\	.	16cc#\	.	.	.	.	.	.	.
.	.	.	16dd\	.	16dd\	.	.	.	.	.	.	.
.	.	.	16ee\JJ	.	16ee\JJ	.	.	.	.	.	.	.
!	!	!	!LO:LB:g=original	!	!	!	!	!	!	!	!	!
!	!	!	!LO:TX:t=P:problem=mixed beam	!	!LO:TX:t=P:problem=mixed beam	!	!	!	!	!	!	!
.	.	.	8ff#|\L	.	8ff#|\L	.	.	.	.	.	4r	4r
.	.	.	8f#|/J	.	8f#/J	.	.	.	.	.	.	.
=65	=65	=65	=65	=65	=65	=65	=65	=65	=65	=65	=65	=65
2D\	8	.	16r	.	16r	.	2D\	-re	2d/	-re	4d/	4d/
.	.	.	16d/LL	.	16d/LL	.	.	.	.	.	.	.
.	.	.	16e/	.	16e/	.	.	.	.	.	.	.
.	.	.	16f#/JJ	.	16f#/JJ	.	.	.	.	.	.	.
!	!	!	!	!	!LO:LB:g=original	!	!	!	!	!	!	!
.	.	.	16g/LL	.	16g/LL	.	.	.	.	.	4r	4r
.	.	.	16a/	.	16a/	.	.	.	.	.	.	.
.	.	.	16b/	.	16b/	.	.	.	.	.	.	.
.	.	.	16cc#/JJ	.	16cc#/JJ	.	.	.	.	.	.	.
!	!	!	!LO:TX:t=P:problem=mixed beam	!	!LO:TX:t=P:problem=mixed beam	!	!	!	!	!	!	!
4r	.	.	8dd|\L	.	8dd|\L	.	4r	.	4r	.	4r	4r
.	.	.	8d/J	.	8d/J	.	.	.	.	.	.	.
=66	=66	=66	=66	=66	=66	=66	=66	=66	=66	=66	=66	=66
!	!	!	!LO:TX:t=P:problem=mixed beam	!	!LO:TX:t=P:problem=mixed beam	!	!	!	!	!	!	!
4GG/	.	.	8G/L	.	8G/L	.	(4G\	no-	4r	.	8r	8r
.	.	.	(8gg\	.	(8bb\	.	.	.	.	.	8gg\L	8bb\L
2AA/	6 4	.	8ff#\)	.	8aa\)	.	2AT\)	.	(8ff#\L	no-	8ff#\	8aa\
.	.	.	(8dd\	.	(8ff#\	.	.	.	8dd\J)	.	8dd\	8ff#\
.	7 3	.	8ee\)	.	8gg\)	.	.	.	(8ee\L	.	8ee\	8gg\
.	.	.	8cc#|\J	.	8ee|\J	.	.	.	8cc#\J)	.	8a\J	8ee\J
=67	=67	=67	=67	=67	=67	=67	=67	=67	=67	=67	=67	=67
.	.	.	.	.	.	.	.	.	8qqcc#/	.	.	.
2DD/	.	.	2ff# 2a 2d/	.	2ff# 2a 2d/	.	2D/	-bis	2dd\	-bis.	2f#/	2dd\
4r	.	.	4r	.	4r	.	4r	.	4r	.	4r	4r
==	==	==	==	==	==	==	==	==	==	==	==	==
*-	*-	*-	*-	*-	*-	*-	*-	*-	*-	*-	*-	*-
!!!system-decoration: [(g1)][(g2)][(g3)]s7
!!!RDF**kern: > = above
!!!RDF**kern: < = below
!!!RDF**kern: | = vertical stroke
!!!ENC: Mateusz Solarz
!!!END: 2022-03-30
!!!ENC: Marta Lawrence
!!!END: 2022-04-07
